; Ender 3 Custom Start G-code
M140 S60
M105
M190 S60
M104 S200
M105
M109 S200
G28 ; Home all axes
G92 E0 ; Reset Extruder
G1 Z2.0 F3000 ; Move Z Axis up little to prevent scratching of Heat Bed
G1 F1000 E10 ; extrude filament 10 mm
; End of custom start GCode
G0 Z10
G0 X199.0 Y48.0
;FLAVOR:Marlin
;TIME:615
;Filament used: 0.38009m
;Layer height: 0.15
;Generated with Cura_SteamEngine 3.6.0
M140 S60
M105
M190 S60
M104 S200
M105
M109 S200
M82 ;absolute extrusion mode
G92 E0
G1 E-5.0 F2400.0
;LAYER_COUNT:51
;LAYER:-5
M107
M204 S5000
M205 X30 Y30
G0 F7200.0 X201.833 Y17.429 Z0.3
M204 S500
M205 X20 Y20
;TYPE:SUPPORT-INTERFACE
G1 E0.0 F2400.0
G1 E0.022 F1125.0 X201.991 Y17.274
G1 E0.077 X202.402 Y16.914
G1 E0.098 X202.569 Y16.781
G1 E0.15 X202.997 Y16.475
G1 E0.174 X203.199 Y16.346
G1 E0.225 X203.642 Y16.091
G1 E0.25 X203.865 Y15.978
G1 E0.302 X204.341 Y15.765
G1 E0.325 X204.554 Y15.682
G1 E0.377 X205.046 Y15.519
G1 E0.403 X205.294 Y15.45
G1 E0.454 X205.8 Y15.336
G1 E0.477 X206.021 Y15.298
G1 E0.531 X206.561 Y15.233
G1 E0.551 X206.766 Y15.217
G1 E0.598 X207.234 Y15.201
G1 E1.598 X217.252 Y15.205
G1 E1.658 X217.856 Y15.235
G1 E1.679 X218.065 Y15.256
G1 E1.734 X218.608 Y15.338
G1 E1.754 X218.803 Y15.377
G1 E1.809 X219.343 Y15.515
G1 E1.83 X219.543 Y15.577
G1 E1.884 X220.051 Y15.763
G1 E1.908 X220.271 Y15.855
G1 E1.96 X220.745 Y16.084
G1 E1.982 X220.932 Y16.187
G1 E2.035 X221.389 Y16.467
G1 E2.059 X221.589 Y16.603
G1 E2.111 X221.997 Y16.913
G1 E2.135 X222.186 Y17.074
G1 E2.188 X222.572 Y17.434
G1 E2.21 X222.727 Y17.592
G1 E2.265 X223.087 Y18.003
G1 E2.285 X223.216 Y18.164
G1 E2.338 X223.525 Y18.596
G1 E2.362 X223.655 Y18.8
G1 E2.413 X223.907 Y19.238
G1 E2.439 X224.026 Y19.472
G1 E2.49 X224.236 Y19.942
G1 E2.512 X224.317 Y20.148
G1 E2.564 X224.481 Y20.642
G1 E2.59 X224.551 Y20.895
G1 E2.641 X224.663 Y21.391
G1 E2.664 X224.702 Y21.613
G1 E2.719 X224.768 Y22.162
G1 E2.738 X224.784 Y22.357
G1 E2.783 X224.8 Y22.801
G1 E3.786 X224.796 Y32.853
G1 E3.846 X224.766 Y33.457
G1 E3.867 X224.745 Y33.665
G1 E3.922 X224.663 Y34.209
G1 E3.942 X224.624 Y34.404
G1 E3.997 X224.487 Y34.941
G1 E4.018 X224.424 Y35.144
G1 E4.072 X224.239 Y35.649
G1 E4.097 X224.143 Y35.877
G1 E4.148 X223.917 Y36.346
G1 E4.17 X223.814 Y36.533
G1 E4.223 X223.534 Y36.99
G1 E4.247 X223.398 Y37.19
G1 E4.299 X223.088 Y37.598
G1 E4.323 X222.927 Y37.787
G1 E4.375 X222.572 Y38.168
G1 E4.398 X222.409 Y38.328
G1 E4.452 X222.003 Y38.684
G1 E4.473 X221.837 Y38.817
G1 E4.526 X221.406 Y39.125
G1 E4.55 X221.201 Y39.256
G1 E4.601 X220.758 Y39.511
G1 E4.626 X220.535 Y39.624
G1 E4.678 X220.059 Y39.837
G1 E4.701 X219.846 Y39.92
G1 E4.753 X219.354 Y40.083
G1 E4.778 X219.106 Y40.152
G1 E4.83 X218.6 Y40.266
G1 E4.853 X218.379 Y40.304
G1 E4.907 X217.839 Y40.369
G1 E4.927 X217.634 Y40.385
G1 E4.974 X217.166 Y40.401
G1 E5.974 X207.148 Y40.397
G1 E6.034 X206.544 Y40.367
G1 E6.055 X206.335 Y40.346
G1 E6.11 X205.792 Y40.264
G1 E6.13 X205.597 Y40.225
G1 E6.185 X205.057 Y40.087
G1 E6.206 X204.855 Y40.024
G1 E6.26 X204.349 Y39.839
G1 E6.284 X204.129 Y39.747
G1 E6.337 X203.654 Y39.517
G1 E6.358 X203.465 Y39.413
G1 E6.412 X203.008 Y39.133
G1 E6.435 X202.811 Y38.999
G1 E6.487 X202.402 Y38.688
G1 E6.511 X202.214 Y38.528
G1 E6.564 X201.828 Y38.168
G1 E6.586 X201.673 Y38.01
G1 E6.641 X201.313 Y37.599
G1 E6.661 X201.184 Y37.438
G1 E6.715 X200.872 Y37.001
G1 E6.739 X200.743 Y36.799
G1 E6.79 X200.488 Y36.354
G1 E6.815 X200.374 Y36.13
G1 E6.867 X200.16 Y35.652
G1 E6.889 X200.081 Y35.447
G1 E6.941 X199.918 Y34.955
G1 E6.966 X199.849 Y34.707
G1 E7.018 X199.735 Y34.201
G1 E7.041 X199.697 Y33.98
G1 E7.095 X199.632 Y33.439
G1 E7.116 X199.615 Y33.227
G1 E7.159 X199.6 Y32.801
G1 E8.162 X199.604 Y22.749
G1 E8.222 X199.634 Y22.142
G1 E8.243 X199.655 Y21.937
G1 E8.298 X199.737 Y21.393
G1 E8.318 X199.776 Y21.198
G1 E8.374 X199.915 Y20.654
G1 E8.394 X199.976 Y20.458
G1 E8.448 X200.162 Y19.95
G1 E8.472 X200.254 Y19.73
G1 E8.525 X200.487 Y19.248
G1 E8.546 X200.586 Y19.069
G1 E8.599 X200.866 Y18.612
G1 E8.623 X201.002 Y18.412
G1 E8.675 X201.313 Y18.003
G1 E8.699 X201.473 Y17.815
G1 E8.752 X201.833 Y17.429
M204 S5000
M205 X30 Y30
G0 F7200.0 X201.582 Y17.698
M204 S500
M205 X20 Y20
G1 E10.768 F1125.0 X201.582 Y37.906
M204 S5000
M205 X30 Y30
G0 F7200.0 X203.182 Y39.239
M204 S500
M205 X20 Y20
G1 E13.052 F1125.0 X203.182 Y16.356
M204 S5000
M205 X30 Y30
G0 F7200.0 X204.782 Y15.606
M204 S500
M205 X20 Y20
G1 E15.485 F1125.0 X204.782 Y39.997
M204 S5000
M205 X30 Y30
G0 F7200.0 X206.382 Y40.35
M204 S500
M205 X20 Y20
G1 E17.989 F1125.0 X206.382 Y15.254
M204 S5000
M205 X30 Y30
G0 F7200.0 X207.982 Y15.202
M204 S500
M205 X20 Y20
G1 E20.503 F1125.0 X207.982 Y40.397
M204 S5000
M205 X30 Y30
G0 F7200.0 X209.582 Y40.397
M204 S500
M205 X20 Y20
G1 E23.017 F1125.0 X209.582 Y15.202
M204 S5000
M205 X30 Y30
G0 F7200.0 X211.182 Y15.203
M204 S500
M205 X20 Y20
G1 E25.531 F1125.0 X211.182 Y40.398
M204 S5000
M205 X30 Y30
G0 F7200.0 X212.782 Y40.399
M204 S500
M205 X20 Y20
G1 E28.045 F1125.0 X212.782 Y15.204
M204 S5000
M205 X30 Y30
G0 F7200.0 X214.382 Y15.204
M204 S500
M205 X20 Y20
G1 E30.559 F1125.0 X214.382 Y40.399
M204 S5000
M205 X30 Y30
G0 F7200.0 X215.982 Y40.4
M204 S500
M205 X20 Y20
G1 E33.073 F1125.0 X215.982 Y15.205
M204 S5000
M205 X30 Y30
G0 F7200.0 X217.582 Y15.222
M204 S500
M205 X20 Y20
G1 E35.584 F1125.0 X217.582 Y40.387
M204 S5000
M205 X30 Y30
G0 F7200.0 X219.182 Y40.131
M204 S500
M205 X20 Y20
G1 E38.044 F1125.0 X219.182 Y15.474
M204 S5000
M205 X30 Y30
G0 F7200.0 X220.782 Y16.105
M204 S500
M205 X20 Y20
G1 E40.379 F1125.0 X220.782 Y39.498
M204 S5000
M205 X30 Y30
G0 F7200.0 X222.382 Y38.352
M204 S500
M205 X20 Y20
G1 E42.483 F1125.0 X222.382 Y17.257
M204 S5000
M205 X30 Y30
G0 F7200.0 X223.982 Y19.386
M204 S500
M205 X20 Y20
G1 E44.162 F1125.0 X223.982 Y36.212
M204 S5000
M205 X30 Y30
G1 E39.162 F2400.0
G0 F7200.0 X199.982 Y35.148
M204 S500
M205 X20 Y20
G1 E44.162 F2400.0
G1 E45.63 F1125.0 X199.982 Y20.441
M204 S5000
M205 X30 Y30
G1 E40.63 F2400.0
G0 F7200.0 X200.872 Y37.0
;TIME_ELAPSED:34.049422
;LAYER:-4
M140 S60
G0 X200.872 Y37.0 Z0.525
M204 S500
M205 X20 Y20
;TYPE:SUPPORT
G1 E45.63 F2400.0
G1 E45.67 F1125.0 X201.183 Y37.437
G1 E45.685 X201.313 Y37.598
G1 E45.726 X201.673 Y38.009
G1 E45.743 X201.828 Y38.166
G1 E45.782 X202.214 Y38.527
G1 E45.801 X202.402 Y38.687
G1 E45.839 X202.811 Y38.998
G1 E45.857 X203.008 Y39.132
G1 E45.86 X203.04 Y39.151
G1 E46.093 X200.841 Y36.952
G1 E46.106 X200.742 Y36.798
G1 E46.145 X200.488 Y36.353
G1 E46.164 X200.374 Y36.128
G1 E46.203 X200.16 Y35.651
G1 E46.219 X200.08 Y35.446
G1 E46.258 X199.918 Y34.954
G1 E46.277 X199.848 Y34.706
G1 E46.293 X199.801 Y34.498
G1 E46.897 X205.503 Y40.2
G1 E46.904 X205.597 Y40.224
G1 E46.919 X205.791 Y40.263
G1 E46.96 X206.334 Y40.345
G1 E46.976 X206.543 Y40.366
G1 E47.018 X207.111 Y40.394
G1 E47.813 X199.602 Y32.885
G1 E47.819 X199.6 Y32.8
G1 E47.919 X199.6 Y31.468
G1 E48.864 X208.527 Y40.396
G1 E48.97 X209.942 Y40.397
G1 E50.064 X199.6 Y30.054
G1 E50.17 X199.601 Y28.641
G1 E51.414 X211.357 Y40.397
G1 E51.52 X212.772 Y40.398
G1 E52.914 X199.602 Y27.227
G1 E53.02 X199.602 Y25.814
G1 E54.563 X214.187 Y40.399
G1 E54.669 X215.602 Y40.399
G1 E56.362 X199.603 Y24.4
G1 E56.468 X199.603 Y22.986
G1 E58.311 X217.016 Y40.399
G1 E58.322 X217.165 Y40.4
G1 E58.357 X217.633 Y40.384
G1 E58.373 X217.839 Y40.368
G1 E58.41 X218.338 Y40.307
G1 E60.383 X199.695 Y21.664
G1 E60.404 X199.737 Y21.392
G1 E60.419 X199.776 Y21.197
G1 E60.461 X199.914 Y20.653
G1 E60.472 X199.958 Y20.513
G1 E62.538 X219.483 Y40.038
G1 E62.567 X219.845 Y39.919
G1 E62.584 X220.059 Y39.836
G1 E62.62 X220.498 Y39.639
G1 E64.751 X200.363 Y19.503
G1 E64.772 X200.487 Y19.247
G1 E64.787 X200.585 Y19.068
G1 E64.828 X200.866 Y18.611
G1 E64.829 X200.873 Y18.599
G1 E67.001 X221.4 Y39.127
M204 S5000
M205 X30 Y30
G0 F7200.0 X221.406 Y39.124
M204 S500
M205 X20 Y20
G1 E67.041 F1125.0 X221.837 Y38.816
G1 E67.057 X222.003 Y38.683
G1 E67.076 X222.198 Y38.51
G1 E69.268 X201.486 Y17.798
G1 E69.306 X201.832 Y17.428
G1 E69.323 X201.99 Y17.273
G1 E69.343 X202.196 Y17.094
G1 E71.535 X222.908 Y37.806
G1 E71.537 X222.926 Y37.787
G1 E71.556 X223.087 Y37.597
G1 E71.594 X223.397 Y37.19
G1 E71.611 X223.522 Y37.006
G1 E73.783 X202.994 Y16.477
G1 E73.801 X203.197 Y16.346
G1 E73.84 X203.641 Y16.09
G1 E73.858 X203.864 Y15.977
G1 E73.861 X203.895 Y15.964
G1 E75.992 X224.033 Y36.102
G1 E76.011 X224.142 Y35.876
G1 E76.029 X224.238 Y35.648
G1 E76.07 X224.423 Y35.143
G1 E76.074 X224.439 Y35.094
G1 E78.14 X204.909 Y15.564
G1 E78.151 X205.044 Y15.518
G1 E78.17 X205.292 Y15.45
G1 E78.209 X205.799 Y15.335
G1 E78.226 X206.02 Y15.298
G1 E78.229 X206.053 Y15.294
G1 E80.202 X224.703 Y33.943
G1 E80.223 X224.744 Y33.665
G1 E80.239 X224.765 Y33.457
G1 E80.284 X224.795 Y32.852
G1 E80.301 X224.796 Y32.623
G1 E82.145 X207.375 Y15.202
G1 E82.251 X208.789 Y15.202
G1 E83.945 X224.796 Y31.208
G1 E84.051 X224.797 Y29.795
G1 E85.595 X210.204 Y15.202
G1 E85.701 X211.619 Y15.203
G1 E87.096 X224.797 Y28.381
G1 E87.201 X224.797 Y26.967
G1 E88.447 X213.033 Y15.203
G1 E88.552 X214.448 Y15.204
G1 E89.648 X224.798 Y25.554
G1 E89.754 X224.799 Y24.14
G1 E90.699 X215.863 Y15.204
G1 E90.803 X217.25 Y15.204
G1 E90.805 X217.279 Y15.207
G1 E91.601 X224.797 Y22.724
G1 E91.628 X224.783 Y22.357
G1 E91.643 X224.767 Y22.161
G1 E91.684 X224.7 Y21.612
G1 E91.701 X224.662 Y21.391
G1 E91.723 X224.599 Y21.112
G1 E92.327 X218.885 Y15.398
G1 E92.363 X219.342 Y15.514
G1 E92.378 X219.541 Y15.576
G1 E92.419 X220.05 Y15.762
G1 E92.437 X220.27 Y15.855
G1 E92.476 X220.744 Y16.083
G1 E92.492 X220.931 Y16.187
G1 E92.528 X221.337 Y16.436
G1 E92.764 X223.572 Y18.671
M204 S5000
M205 X30 Y30
G0 F7200.0 X223.524 Y18.596
M204 S500
M205 X20 Y20
G1 E92.804 F1125.0 X223.215 Y18.164
G1 E92.82 X223.086 Y18.002
G1 E92.86 X222.726 Y17.592
G1 E92.877 X222.571 Y17.433
G1 E92.916 X222.185 Y17.073
G1 E92.935 X221.996 Y16.912
G1 E92.973 X221.588 Y16.603
G1 E92.991 X221.388 Y16.467
G1 E92.996 X221.337 Y16.436
M204 S5000
M205 X30 Y30
G1 E87.996 F2400.0
G0 F7200.0 X206.045 Y15.094
;TIME_ELAPSED:68.526074
;LAYER:-3
G0 X206.045 Y15.094 Z0.675
M204 S500
M205 X20 Y20
;TYPE:SUPPORT-INTERFACE
G1 E92.996 F2400.0
G1 E92.997 F1500.0 X205.988 Y15.101
G1 E93.003 X205.761 Y15.14
G1 E93.016 X205.24 Y15.257
G1 E93.023 X204.993 Y15.325
G1 E93.036 X204.484 Y15.494
G1 E93.421 X219.902 Y15.494
G1 E93.427 X220.12 Y15.574
G1 E93.433 X220.348 Y15.669
G1 E93.446 X220.814 Y15.894
G1 E93.875 X203.589 Y15.894
G1 E93.876 X203.547 Y15.915
G1 E93.889 X203.108 Y16.168
G1 E93.895 X202.911 Y16.294
G1 E94.358 X221.492 Y16.294
G1 E94.359 X221.51 Y16.305
G1 E94.365 X221.693 Y16.43
G1 E94.375 X222.04 Y16.694
G1 E94.866 X202.357 Y16.694
G1 E94.869 X202.263 Y16.769
G1 E94.882 X201.893 Y17.094
G1 E95.396 X222.503 Y17.094
G1 E95.403 X222.702 Y17.28
G1 E95.409 X222.879 Y17.461
G1 E95.41 X222.908 Y17.494
G1 E95.944 X201.499 Y17.494
G1 E95.95 X201.333 Y17.671
G1 E95.957 X201.152 Y17.885
G1 E95.957 X201.146 Y17.894
G1 E96.509 X223.257 Y17.894
G1 E96.513 X223.371 Y18.037
G1 E96.521 X223.555 Y18.294
G1 E97.088 X200.841 Y18.294
G1 E97.088 X200.83 Y18.308
G1 E97.094 X200.705 Y18.491
G1 E97.1 X200.582 Y18.694
G1 E97.68 X223.825 Y18.694
G1 E97.68 X223.833 Y18.708
G1 E97.691 X224.056 Y19.094
G1 E98.283 X200.345 Y19.094
G1 E98.285 X200.302 Y19.171
G1 E98.294 X200.146 Y19.494
G1 E98.895 X224.256 Y19.494
G1 E98.905 X224.42 Y19.859
G1 E98.906 X224.434 Y19.894
G1 E99.516 X199.97 Y19.894
G1 E99.527 X199.823 Y20.294
G1 E100.145 X224.577 Y20.294
G1 E100.152 X224.674 Y20.587
G1 E100.155 X224.704 Y20.694
G1 E100.779 X199.699 Y20.694
G1 E100.789 X199.597 Y21.094
G1 E101.418 X224.802 Y21.094
G1 E101.425 X224.86 Y21.356
G1 E101.428 X224.884 Y21.494
G1 E102.061 X199.52 Y21.494
G1 E102.071 X199.459 Y21.894
G1 E102.706 X224.938 Y21.894
G1 E102.713 X224.969 Y22.153
G1 E102.716 X224.98 Y22.294
G1 E103.354 X199.426 Y22.294
G1 E103.364 X199.407 Y22.694
G1 E104.002 X224.997 Y22.694
G1 E104.005 X225.0 Y22.8
G1 E104.012 X224.999 Y23.094
G1 E104.651 X199.404 Y23.094
G1 E104.661 X199.404 Y23.494
G1 E105.299 X224.999 Y23.494
G1 E105.309 X224.999 Y23.894
G1 E105.948 X199.404 Y23.894
G1 E105.958 X199.404 Y24.294
G1 E106.596 X224.999 Y24.294
G1 E106.606 X224.999 Y24.694
G1 E107.244 X199.404 Y24.694
G1 E107.254 X199.404 Y25.094
G1 E107.893 X224.999 Y25.094
G1 E107.903 X224.998 Y25.494
G1 E108.541 X199.403 Y25.494
G1 E108.551 X199.403 Y25.894
G1 E109.19 X224.998 Y25.894
G1 E109.2 X224.998 Y26.294
G1 E109.838 X199.403 Y26.294
G1 E109.848 X199.403 Y26.694
G1 E110.487 X224.998 Y26.694
G1 E110.497 X224.998 Y27.094
G1 E111.135 X199.403 Y27.094
G1 E111.145 X199.403 Y27.494
G1 E111.784 X224.998 Y27.494
G1 E111.794 X224.997 Y27.894
G1 E112.432 X199.402 Y27.894
G1 E112.442 X199.402 Y28.294
G1 E113.08 X224.997 Y28.294
G1 E113.09 X224.997 Y28.694
G1 E113.729 X199.401 Y28.694
G1 E113.739 X199.401 Y29.094
G1 E114.377 X224.997 Y29.094
G1 E114.387 X224.997 Y29.494
G1 E115.026 X199.401 Y29.494
G1 E115.036 X199.401 Y29.894
G1 E115.674 X224.997 Y29.894
G1 E115.684 X224.997 Y30.294
G1 E116.323 X199.4 Y30.294
G1 E116.333 X199.4 Y30.694
G1 E116.971 X224.996 Y30.694
G1 E116.981 X224.996 Y31.094
G1 E117.62 X199.4 Y31.094
G1 E117.63 X199.4 Y31.494
G1 E118.268 X224.996 Y31.494
G1 E118.278 X224.996 Y31.894
G1 E118.917 X199.4 Y31.894
G1 E118.927 X199.4 Y32.294
G1 E119.565 X224.996 Y32.294
G1 E119.575 X224.996 Y32.694
G1 E120.214 X199.4 Y32.694
G1 E120.216 X199.399 Y32.801
G1 E120.224 X199.409 Y33.094
G1 E120.862 X224.984 Y33.094
G1 E120.871 X224.966 Y33.47
G1 E120.872 X224.963 Y33.494
G1 E121.508 X199.435 Y33.494
G1 E121.518 X199.484 Y33.894
G1 E122.153 X224.913 Y33.894
G1 E122.161 X224.862 Y34.235
G1 E122.163 X224.85 Y34.294
G1 E122.794 X199.55 Y34.294
G1 E122.804 X199.639 Y34.694
G1 E123.431 X224.756 Y34.694
G1 E123.439 X224.679 Y34.997
G1 E123.441 X224.648 Y35.094
G1 E124.062 X199.751 Y35.094
G1 E124.073 X199.884 Y35.494
G1 E124.687 X224.509 Y35.494
G1 E124.693 X224.426 Y35.721
G1 E124.698 X224.353 Y35.894
G1 E125.304 X200.047 Y35.894
G1 E125.313 X200.194 Y36.22
G1 E125.315 X200.231 Y36.294
G1 E125.912 X224.164 Y36.294
G1 E125.916 X224.098 Y36.431
G1 E125.922 X223.984 Y36.637
G1 E125.923 X223.949 Y36.694
G1 E126.51 X200.451 Y36.694
G1 E126.515 X200.566 Y36.893
G1 E126.521 X200.694 Y37.094
G1 E127.095 X223.705 Y37.094
G1 E127.096 X223.695 Y37.111
G1 E127.101 X223.57 Y37.294
G1 E127.108 X223.417 Y37.494
G1 E127.667 X200.977 Y37.494
G1 E127.669 X201.026 Y37.562
G1 E127.675 X201.161 Y37.731
G1 E127.68 X201.304 Y37.894
G1 E128.224 X223.098 Y37.894
G1 E128.225 X223.067 Y37.931
G1 E128.237 X222.728 Y38.294
G1 E128.763 X201.67 Y38.294
G1 E128.764 X201.697 Y38.321
G1 E128.776 X202.069 Y38.668
G1 E128.777 X202.099 Y38.694
G1 E129.281 X222.295 Y38.694
G1 E129.286 X222.137 Y38.833
G1 E129.292 X221.963 Y38.972
G1 E129.297 X221.792 Y39.094
G1 E129.776 X202.604 Y39.094
G1 E129.779 X202.706 Y39.171
G1 E129.785 X202.889 Y39.296
G1 E129.794 X203.213 Y39.494
G1 E130.242 X221.187 Y39.494
G1 E130.252 X220.853 Y39.687
G1 E130.259 X220.618 Y39.806
G1 E130.264 X220.422 Y39.894
G1 E130.674 X203.972 Y39.894
G1 E130.676 X204.051 Y39.932
G1 E130.683 X204.279 Y40.027
G1 E130.696 X204.787 Y40.213
G1 E130.702 X205.003 Y40.28
G1 E130.703 X205.057 Y40.294
G1 E131.06 X219.345 Y40.294
G1 E131.064 X219.16 Y40.345
G1 E131.078 X218.639 Y40.462
G1 E131.083 X218.412 Y40.501
G1 E131.098 X217.847 Y40.57
G1 E131.103 X217.651 Y40.585
G1 E131.115 X217.17 Y40.601
G1 E131.365 X207.137 Y40.597
G1 E131.38 X206.53 Y40.567
G1 E131.386 X206.305 Y40.544
G1 E131.399 X205.761 Y40.462
G1 E131.405 X205.547 Y40.419
M204 S5000
M205 X30 Y30
G1 E126.405 F2400.0
G0 F7200.0 X206.045 Y15.094
M204 S500
M205 X20 Y20
G1 E131.405 F2400.0
G1 E131.418 F1500.0 X206.553 Y15.031
G1 E131.422 X206.749 Y15.016
G1 E131.434 X207.23 Y15.0
G1 E131.685 X217.262 Y15.004
G1 E131.7 X217.869 Y15.034
G1 E131.705 X218.094 Y15.057
M204 S5000
M205 X30 Y30
G0 F7200.0 X218.34 Y15.094
M204 S500
M205 X20 Y20
G1 E132.012 F1500.0 X206.045 Y15.094
M204 S5000
M205 X30 Y30
G1 E127.012 F2400.0
G0 F7200.0 X216.6 Y32.201
;TIME_ELAPSED:133.229783
;LAYER:0
M106 S178.5
;MESH:cube.STL
G0 F2880.0 X216.6 Y32.201 Z1.025
