;FLAVOR:Marlin
;TIME:615
;Filament used: 0.38009m
;Layer height: 0.15
;Generated with Cura_SteamEngine 3.6.0
M140 S60
M105
M190 S60
M104 S200
M105
M109 S200
M82 ;absolute extrusion mode
G92 E0
G1 F2400 E-5
;LAYER_COUNT:51
;LAYER:-5
M107
M204 S5000
M205 X30 Y30
G0 F7200 X19.451 Y18.735 Z0.3
M204 S500
M205 X20 Y20
;TYPE:SUPPORT-INTERFACE
G1 F2400 E0
G1 F1125 X19.609 Y18.58 E0.02208
G1 X20.02 Y18.22 E0.0766
G1 X20.187 Y18.087 E0.0979
G1 X20.615 Y17.781 E0.1504
G1 X20.817 Y17.652 E0.17432
G1 X21.26 Y17.397 E0.22532
G1 X21.483 Y17.284 E0.25026
G1 X21.959 Y17.071 E0.3023
G1 X22.172 Y16.988 E0.32511
G1 X22.664 Y16.825 E0.37682
G1 X22.912 Y16.756 E0.40251
G1 X23.418 Y16.642 E0.45426
G1 X23.639 Y16.604 E0.47664
G1 X24.179 Y16.539 E0.53091
G1 X24.384 Y16.523 E0.55143
G1 X24.852 Y16.507 E0.59815
G1 X34.87 Y16.511 E1.59775
G1 X35.474 Y16.541 E1.65809
G1 X35.683 Y16.562 E1.67905
G1 X36.226 Y16.644 E1.73385
G1 X36.421 Y16.683 E1.75369
G1 X36.961 Y16.821 E1.8093
G1 X37.161 Y16.883 E1.8302
G1 X37.669 Y17.069 E1.88418
G1 X37.889 Y17.161 E1.90797
G1 X38.363 Y17.39 E1.9605
G1 X38.55 Y17.493 E1.9818
G1 X39.007 Y17.773 E2.03528
G1 X39.207 Y17.909 E2.05941
G1 X39.615 Y18.219 E2.11054
G1 X39.804 Y18.38 E2.13531
G1 X40.19 Y18.74 E2.18798
G1 X40.345 Y18.898 E2.21006
G1 X40.705 Y19.309 E2.26458
G1 X40.834 Y19.47 E2.28516
G1 X41.143 Y19.902 E2.33816
G1 X41.273 Y20.106 E2.3623
G1 X41.525 Y20.544 E2.41272
G1 X41.644 Y20.778 E2.43891
G1 X41.854 Y21.248 E2.49028
G1 X41.935 Y21.454 E2.51236
G1 X42.099 Y21.948 E2.5643
G1 X42.169 Y22.201 E2.59049
G1 X42.281 Y22.697 E2.64123
G1 X42.32 Y22.919 E2.66372
G1 X42.386 Y23.468 E2.7189
G1 X42.402 Y23.663 E2.73842
G1 X42.418 Y24.107 E2.78275
G1 X42.414 Y34.159 E3.78574
G1 X42.384 Y34.763 E3.84608
G1 X42.363 Y34.971 E3.86694
G1 X42.281 Y35.515 E3.92184
G1 X42.242 Y35.71 E3.94168
G1 X42.105 Y36.247 E3.99698
G1 X42.042 Y36.45 E4.01819
G1 X41.857 Y36.955 E4.07185
G1 X41.761 Y37.183 E4.09653
G1 X41.535 Y37.652 E4.14848
G1 X41.432 Y37.839 E4.16978
G1 X41.152 Y38.296 E4.22326
G1 X41.016 Y38.496 E4.24739
G1 X40.706 Y38.904 E4.29852
G1 X40.545 Y39.093 E4.3233
G1 X40.19 Y39.474 E4.37526
G1 X40.027 Y39.634 E4.39805
G1 X39.621 Y39.99 E4.45193
G1 X39.455 Y40.123 E4.47315
G1 X39.024 Y40.431 E4.52601
G1 X38.819 Y40.562 E4.55028
G1 X38.376 Y40.817 E4.60129
G1 X38.153 Y40.93 E4.62623
G1 X37.677 Y41.143 E4.67826
G1 X37.464 Y41.226 E4.70107
G1 X36.972 Y41.389 E4.75279
G1 X36.724 Y41.458 E4.77848
G1 X36.218 Y41.572 E4.83023
G1 X35.997 Y41.61 E4.85261
G1 X35.457 Y41.675 E4.90688
G1 X35.252 Y41.691 E4.92739
G1 X34.784 Y41.707 E4.97412
G1 X24.766 Y41.703 E5.97372
G1 X24.162 Y41.673 E6.03406
G1 X23.953 Y41.652 E6.05502
G1 X23.41 Y41.57 E6.10981
G1 X23.215 Y41.531 E6.12966
G1 X22.675 Y41.393 E6.18527
G1 X22.473 Y41.33 E6.20638
G1 X21.967 Y41.145 E6.26014
G1 X21.747 Y41.053 E6.28393
G1 X21.272 Y40.823 E6.33659
G1 X21.083 Y40.719 E6.35812
G1 X20.626 Y40.439 E6.4116
G1 X20.429 Y40.305 E6.43537
G1 X20.02 Y39.994 E6.48664
G1 X19.832 Y39.834 E6.51127
G1 X19.446 Y39.474 E6.56394
G1 X19.291 Y39.316 E6.58602
G1 X18.931 Y38.905 E6.64054
G1 X18.802 Y38.744 E6.66112
G1 X18.49 Y38.307 E6.7147
G1 X18.361 Y38.105 E6.73862
G1 X18.106 Y37.66 E6.78979
G1 X17.992 Y37.436 E6.81487
G1 X17.778 Y36.958 E6.86713
G1 X17.699 Y36.753 E6.88905
G1 X17.536 Y36.261 E6.94076
G1 X17.467 Y36.013 E6.96645
G1 X17.353 Y35.507 E7.0182
G1 X17.315 Y35.286 E7.04058
G1 X17.25 Y34.745 E7.09495
G1 X17.233 Y34.533 E7.11617
G1 X17.218 Y34.107 E7.1587
G1 X17.222 Y24.055 E8.1617
G1 X17.252 Y23.448 E8.22234
G1 X17.273 Y23.243 E8.2429
G1 X17.355 Y22.699 E8.29779
G1 X17.394 Y22.504 E8.31763
G1 X17.533 Y21.96 E8.37366
G1 X17.594 Y21.764 E8.39414
G1 X17.78 Y21.256 E8.44812
G1 X17.872 Y21.036 E8.47191
G1 X18.105 Y20.554 E8.52533
G1 X18.204 Y20.375 E8.54574
G1 X18.484 Y19.918 E8.59922
G1 X18.62 Y19.718 E8.62335
G1 X18.931 Y19.309 E8.67462
G1 X19.091 Y19.121 E8.69925
G1 X19.451 Y18.735 E8.75192
M204 S5000
M205 X30 Y30
G0 F7200 X19.2 Y19.004
M204 S500
M205 X20 Y20
G1 F1125 X19.2 Y39.212 E10.76828
M204 S5000
M205 X30 Y30
G0 F7200 X20.8 Y40.545
M204 S500
M205 X20 Y20
G1 F1125 X20.8 Y17.662 E13.05156
M204 S5000
M205 X30 Y30
G0 F7200 X22.4 Y16.912
M204 S500
M205 X20 Y20
G1 F1125 X22.4 Y41.303 E15.4853
M204 S5000
M205 X30 Y30
G0 F7200 X24 Y41.656
M204 S500
M205 X20 Y20
G1 F1125 X24 Y16.56 E17.98939
M204 S5000
M205 X30 Y30
G0 F7200 X25.6 Y16.508
M204 S500
M205 X20 Y20
G1 F1125 X25.6 Y41.703 E20.50336
M204 S5000
M205 X30 Y30
G0 F7200 X27.2 Y41.703
M204 S500
M205 X20 Y20
G1 F1125 X27.2 Y16.508 E23.01733
M204 S5000
M205 X30 Y30
G0 F7200 X28.8 Y16.509
M204 S500
M205 X20 Y20
G1 F1125 X28.8 Y41.704 E25.53129
M204 S5000
M205 X30 Y30
G0 F7200 X30.4 Y41.705
M204 S500
M205 X20 Y20
G1 F1125 X30.4 Y16.51 E28.04526
M204 S5000
M205 X30 Y30
G0 F7200 X32 Y16.51
M204 S500
M205 X20 Y20
G1 F1125 X32 Y41.705 E30.55923
M204 S5000
M205 X30 Y30
G0 F7200 X33.6 Y41.706
M204 S500
M205 X20 Y20
G1 F1125 X33.6 Y16.511 E33.0732
M204 S5000
M205 X30 Y30
G0 F7200 X35.2 Y16.528
M204 S500
M205 X20 Y20
G1 F1125 X35.2 Y41.693 E35.58417
M204 S5000
M205 X30 Y30
G0 F7200 X36.8 Y41.437
M204 S500
M205 X20 Y20
G1 F1125 X36.8 Y16.78 E38.04445
M204 S5000
M205 X30 Y30
G0 F7200 X38.4 Y17.411
M204 S500
M205 X20 Y20
G1 F1125 X38.4 Y40.804 E40.37862
M204 S5000
M205 X30 Y30
G0 F7200 X40 Y39.658
M204 S500
M205 X20 Y20
G1 F1125 X40 Y18.563 E42.48349
M204 S5000
M205 X30 Y30
G0 F7200 X41.6 Y20.692
M204 S500
M205 X20 Y20
G1 F1125 X41.6 Y37.518 E44.16239
M204 S5000
M205 X30 Y30
G1 F2400 E39.16239
G0 F7200 X17.6 Y36.454
M204 S500
M205 X20 Y20
G1 F2400 E44.16239
G1 F1125 X17.6 Y21.747 E45.62986
M204 S5000
M205 X30 Y30
G1 F2400 E40.62986
G0 F7200 X18.49 Y38.306
;TIME_ELAPSED:34.049422
;LAYER:-4
M140 S60
G0 X18.49 Y38.306 Z0.525
M204 S500
M205 X20 Y20
;TYPE:SUPPORT
G1 F2400 E45.62986
G1 F1125 X18.801 Y38.743 E45.67
G1 X18.931 Y38.904 E45.68549
G1 X19.291 Y39.315 E45.72637
G1 X19.446 Y39.472 E45.74288
G1 X19.832 Y39.833 E45.78243
G1 X20.02 Y39.993 E45.80091
G1 X20.429 Y40.304 E45.83936
G1 X20.626 Y40.438 E45.85719
G1 X20.658 Y40.457 E45.85998
G1 X18.459 Y38.258 E46.0927
G1 X18.36 Y38.104 E46.1064
G1 X18.106 Y37.659 E46.14475
G1 X17.992 Y37.434 E46.16362
G1 X17.778 Y36.957 E46.20275
G1 X17.698 Y36.752 E46.21922
G1 X17.536 Y36.26 E46.25798
G1 X17.466 Y36.012 E46.27726
G1 X17.419 Y35.804 E46.29322
G1 X23.121 Y41.506 E46.89668
G1 X23.215 Y41.53 E46.90394
G1 X23.409 Y41.569 E46.91875
G1 X23.952 Y41.651 E46.95985
G1 X24.161 Y41.672 E46.97557
G1 X24.729 Y41.7 E47.01812
G1 X17.22 Y34.191 E47.81283
G1 X17.218 Y34.106 E47.81919
G1 X17.218 Y32.774 E47.91887
G1 X26.145 Y41.702 E48.86369
G1 X27.56 Y41.703 E48.96959
G1 X17.218 Y31.36 E50.06416
G1 X17.219 Y29.947 E50.16991
G1 X28.975 Y41.703 E51.41408
G1 X30.39 Y41.704 E51.51997
G1 X17.22 Y28.533 E52.91385
G1 X17.22 Y27.12 E53.01959
G1 X31.805 Y41.705 E54.56317
G1 X33.22 Y41.705 E54.66906
G1 X17.221 Y25.706 E56.36228
G1 X17.221 Y24.292 E56.4681
G1 X34.634 Y41.705 E58.31097
G1 X34.783 Y41.706 E58.32212
G1 X35.251 Y41.69 E58.35716
G1 X35.457 Y41.674 E58.37263
G1 X35.956 Y41.613 E58.41025
G1 X17.313 Y22.97 E60.38329
G1 X17.355 Y22.698 E60.40389
G1 X17.394 Y22.503 E60.41877
G1 X17.532 Y21.959 E60.46077
G1 X17.576 Y21.819 E60.47175
G1 X37.101 Y41.344 E62.53815
G1 X37.463 Y41.225 E62.56666
G1 X37.677 Y41.142 E62.58384
G1 X38.116 Y40.945 E62.61985
G1 X17.981 Y20.809 E64.75085
G1 X18.105 Y20.553 E64.77214
G1 X18.203 Y20.374 E64.78741
G1 X18.484 Y19.917 E64.82756
G1 X18.491 Y19.905 E64.8286
G1 X39.018 Y40.433 E67.00109
M204 S5000
M205 X30 Y30
G0 F7200 X39.024 Y40.43
M204 S500
M205 X20 Y20
G1 F1125 X39.455 Y40.122 E67.04073
G1 X39.621 Y39.989 E67.05665
G1 X39.816 Y39.816 E67.07616
G1 X19.104 Y19.104 E69.26817
G1 X19.45 Y18.734 E69.30608
G1 X19.608 Y18.579 E69.32264
G1 X19.814 Y18.4 E69.34307
G1 X40.526 Y39.112 E71.53508
G1 X40.544 Y39.093 E71.53704
G1 X40.705 Y38.903 E71.55568
G1 X41.015 Y38.496 E71.59396
G1 X41.14 Y38.312 E71.61061
G1 X20.612 Y17.783 E73.78321
G1 X20.815 Y17.652 E73.80129
G1 X21.259 Y17.396 E73.83964
G1 X21.482 Y17.283 E73.85835
G1 X21.513 Y17.27 E73.86086
G1 X41.651 Y37.408 E75.99213
G1 X41.76 Y37.182 E76.01091
G1 X41.856 Y36.954 E76.02942
G1 X42.041 Y36.449 E76.06967
G1 X42.057 Y36.4 E76.07353
G1 X22.527 Y16.87 E78.14045
G1 X22.662 Y16.824 E78.15112
G1 X22.91 Y16.756 E78.17036
G1 X23.417 Y16.641 E78.20927
G1 X23.638 Y16.604 E78.22604
G1 X23.671 Y16.6 E78.22853
G1 X42.321 Y35.249 E80.20226
G1 X42.362 Y34.971 E80.22329
G1 X42.383 Y34.763 E80.23893
G1 X42.413 Y34.158 E80.28427
G1 X42.414 Y33.929 E80.3014
G1 X24.993 Y16.508 E82.14512
G1 X26.407 Y16.508 E82.25094
G1 X42.414 Y32.514 E83.94496
G1 X42.415 Y31.101 E84.0507
G1 X27.822 Y16.508 E85.59512
G1 X29.237 Y16.509 E85.70101
G1 X42.415 Y29.687 E87.09568
G1 X42.415 Y28.273 E87.2015
G1 X30.651 Y16.509 E88.44652
G1 X32.066 Y16.51 E88.55241
G1 X42.416 Y26.86 E89.64778
G1 X42.417 Y25.446 E89.7536
G1 X33.481 Y16.51 E90.69933
G1 X34.868 Y16.51 E90.80312
G1 X34.897 Y16.513 E90.8053
G1 X42.415 Y24.03 E91.6009
G1 X42.401 Y23.663 E91.62839
G1 X42.385 Y23.467 E91.64311
G1 X42.318 Y22.918 E91.6845
G1 X42.28 Y22.697 E91.70128
G1 X42.217 Y22.418 E91.72268
G1 X36.503 Y16.704 E92.32741
G1 X36.96 Y16.82 E92.3627
G1 X37.159 Y16.882 E92.37829
G1 X37.668 Y17.068 E92.41885
G1 X37.888 Y17.161 E92.43672
G1 X38.362 Y17.389 E92.47609
G1 X38.549 Y17.493 E92.4921
G1 X38.955 Y17.742 E92.52774
G1 X41.19 Y19.977 E92.76428
M204 S5000
M205 X30 Y30
G0 F7200 X41.142 Y19.902
M204 S500
M205 X20 Y20
G1 F1125 X40.833 Y19.47 E92.80402
G1 X40.704 Y19.308 E92.81952
G1 X40.344 Y18.898 E92.86035
G1 X40.189 Y18.739 E92.87697
G1 X39.803 Y18.379 E92.91647
G1 X39.614 Y18.218 E92.93505
G1 X39.206 Y17.909 E92.97335
G1 X39.006 Y17.773 E92.99145
G1 X38.955 Y17.742 E92.99592
M204 S5000
M205 X30 Y30
G1 F2400 E87.99592
G0 F7200 X23.663 Y16.4
;TIME_ELAPSED:68.526074
;LAYER:-3
G0 X23.663 Y16.4 Z0.675
M204 S500
M205 X20 Y20
;TYPE:SUPPORT-INTERFACE
G1 F2400 E92.99592
G1 F1500 X23.606 Y16.407 E92.99735
G1 X23.379 Y16.446 E93.0031
G1 X22.858 Y16.563 E93.01642
G1 X22.611 Y16.631 E93.02281
G1 X22.102 Y16.8 E93.03619
G1 X37.52 Y16.8 E93.42079
G1 X37.738 Y16.88 E93.42658
G1 X37.966 Y16.975 E93.43274
G1 X38.432 Y17.2 E93.44565
G1 X21.207 Y17.2 E93.87533
G1 X21.165 Y17.221 E93.8765
G1 X20.726 Y17.474 E93.88914
G1 X20.529 Y17.6 E93.89497
G1 X39.11 Y17.6 E94.35848
G1 X39.128 Y17.611 E94.35901
G1 X39.311 Y17.736 E94.36453
G1 X39.658 Y18 E94.37541
G1 X19.975 Y18 E94.8664
G1 X19.881 Y18.075 E94.8694
G1 X19.511 Y18.4 E94.88169
G1 X40.121 Y18.4 E95.39581
G1 X40.32 Y18.586 E95.4026
G1 X40.497 Y18.767 E95.40892
G1 X40.526 Y18.8 E95.41001
G1 X19.117 Y18.8 E95.94406
G1 X18.951 Y18.977 E95.95012
G1 X18.77 Y19.191 E95.95711
G1 X18.764 Y19.2 E95.95738
G1 X40.875 Y19.2 E96.50894
G1 X40.989 Y19.343 E96.5135
G1 X41.173 Y19.6 E96.52139
G1 X18.459 Y19.6 E97.08799
G1 X18.448 Y19.614 E97.08843
G1 X18.323 Y19.797 E97.09396
G1 X18.2 Y20 E97.09988
G1 X41.443 Y20 E97.67968
G1 X41.451 Y20.014 E97.68008
G1 X41.674 Y20.4 E97.6912
G1 X17.963 Y20.4 E98.28268
G1 X17.92 Y20.477 E98.28488
G1 X17.764 Y20.8 E98.29382
G1 X41.874 Y20.8 E98.89525
G1 X42.038 Y21.165 E98.90523
G1 X42.052 Y21.2 E98.90617
G1 X17.588 Y21.2 E99.51643
G1 X17.441 Y21.6 E99.52706
G1 X42.195 Y21.6 E100.14455
G1 X42.292 Y21.893 E100.15225
G1 X42.322 Y22 E100.15502
G1 X17.317 Y22 E100.77877
G1 X17.215 Y22.4 E100.78907
G1 X42.42 Y22.4 E101.41781
G1 X42.478 Y22.662 E101.42451
G1 X42.502 Y22.8 E101.428
G1 X17.138 Y22.8 E102.06071
G1 X17.077 Y23.2 E102.0708
G1 X42.556 Y23.2 E102.70638
G1 X42.587 Y23.459 E102.71289
G1 X42.598 Y23.6 E102.71641
G1 X17.044 Y23.6 E103.35386
G1 X17.025 Y24 E103.36385
G1 X42.615 Y24 E104.0022
G1 X42.618 Y24.106 E104.00484
G1 X42.617 Y24.4 E104.01217
G1 X17.022 Y24.4 E104.65064
G1 X17.022 Y24.8 E104.66062
G1 X42.617 Y24.8 E105.29909
G1 X42.617 Y25.2 E105.30907
G1 X17.022 Y25.2 E105.94754
G1 X17.022 Y25.6 E105.95752
G1 X42.617 Y25.6 E106.59599
G1 X42.617 Y26 E106.60597
G1 X17.022 Y26 E107.24444
G1 X17.022 Y26.4 E107.25441
G1 X42.617 Y26.4 E107.89288
G1 X42.616 Y26.8 E107.90286
G1 X17.021 Y26.8 E108.54133
G1 X17.021 Y27.2 E108.55131
G1 X42.616 Y27.2 E109.18978
G1 X42.616 Y27.6 E109.19976
G1 X17.021 Y27.6 E109.83823
G1 X17.021 Y28 E109.84821
G1 X42.616 Y28 E110.48668
G1 X42.616 Y28.4 E110.49665
G1 X17.021 Y28.4 E111.13512
G1 X17.021 Y28.8 E111.1451
G1 X42.616 Y28.8 E111.78357
G1 X42.615 Y29.2 E111.79355
G1 X17.02 Y29.2 E112.43202
G1 X17.02 Y29.6 E112.442
G1 X42.615 Y29.6 E113.08047
G1 X42.615 Y30 E113.09044
G1 X17.019 Y30 E113.72894
G1 X17.019 Y30.4 E113.73892
G1 X42.615 Y30.4 E114.37741
G1 X42.615 Y30.8 E114.38739
G1 X17.019 Y30.8 E115.02589
G1 X17.019 Y31.2 E115.03586
G1 X42.615 Y31.2 E115.67436
G1 X42.615 Y31.6 E115.68434
G1 X17.018 Y31.6 E116.32286
G1 X17.018 Y32 E116.33283
G1 X42.614 Y32 E116.97133
G1 X42.614 Y32.4 E116.98131
G1 X17.018 Y32.4 E117.6198
G1 X17.018 Y32.8 E117.62978
G1 X42.614 Y32.8 E118.26827
G1 X42.614 Y33.2 E118.27825
G1 X17.018 Y33.2 E118.91675
G1 X17.018 Y33.6 E118.92673
G1 X42.614 Y33.6 E119.56522
G1 X42.614 Y34 E119.5752
G1 X17.018 Y34 E120.21369
G1 X17.017 Y34.107 E120.21636
G1 X17.027 Y34.4 E120.22368
G1 X42.602 Y34.4 E120.86165
G1 X42.584 Y34.776 E120.87104
G1 X42.581 Y34.8 E120.87164
G1 X17.053 Y34.8 E121.50844
G1 X17.102 Y35.2 E121.51849
G1 X42.531 Y35.2 E122.15282
G1 X42.48 Y35.541 E122.16142
G1 X42.468 Y35.6 E122.16292
G1 X17.168 Y35.6 E122.79403
G1 X17.257 Y36 E122.80426
G1 X42.374 Y36 E123.4308
G1 X42.297 Y36.303 E123.4386
G1 X42.266 Y36.4 E123.44114
G1 X17.369 Y36.4 E124.0622
G1 X17.502 Y36.8 E124.07271
G1 X42.127 Y36.8 E124.68699
G1 X42.044 Y37.027 E124.69302
G1 X41.971 Y37.2 E124.6977
G1 X17.665 Y37.2 E125.30402
G1 X17.812 Y37.526 E125.31294
G1 X17.849 Y37.6 E125.315
G1 X41.782 Y37.6 E125.91201
G1 X41.716 Y37.737 E125.91581
G1 X41.602 Y37.943 E125.92168
G1 X41.567 Y38 E125.92335
G1 X18.069 Y38 E126.50951
G1 X18.184 Y38.199 E126.51524
G1 X18.312 Y38.4 E126.52118
G1 X41.323 Y38.4 E127.0952
G1 X41.313 Y38.417 E127.09569
G1 X41.188 Y38.6 E127.10122
G1 X41.035 Y38.8 E127.1075
G1 X18.595 Y38.8 E127.66727
G1 X18.644 Y38.868 E127.66936
G1 X18.779 Y39.037 E127.67475
G1 X18.922 Y39.2 E127.68016
G1 X40.716 Y39.2 E128.22381
G1 X40.685 Y39.237 E128.22502
G1 X40.346 Y39.6 E128.23741
G1 X19.288 Y39.6 E128.7627
G1 X19.315 Y39.627 E128.76366
G1 X19.687 Y39.974 E128.77635
G1 X19.717 Y40 E128.77734
G1 X39.913 Y40 E129.28113
G1 X39.755 Y40.139 E129.28638
G1 X39.581 Y40.278 E129.29193
G1 X39.41 Y40.4 E129.29717
G1 X20.222 Y40.4 E129.77582
G1 X20.324 Y40.477 E129.77901
G1 X20.507 Y40.602 E129.78453
G1 X20.831 Y40.8 E129.79401
G1 X38.805 Y40.8 E130.24237
G1 X38.471 Y40.993 E130.25199
G1 X38.236 Y41.112 E130.25856
G1 X38.04 Y41.2 E130.26392
G1 X21.59 Y41.2 E130.67427
G1 X21.669 Y41.238 E130.67646
G1 X21.897 Y41.333 E130.68262
G1 X22.405 Y41.519 E130.69611
G1 X22.621 Y41.586 E130.70175
G1 X22.675 Y41.6 E130.70315
G1 X36.963 Y41.6 E131.05956
G1 X36.778 Y41.651 E131.06435
G1 X36.257 Y41.768 E131.07767
G1 X36.03 Y41.807 E131.08341
G1 X35.465 Y41.876 E131.09761
G1 X35.269 Y41.891 E131.10252
G1 X34.788 Y41.907 E131.11452
G1 X24.755 Y41.903 E131.3648
G1 X24.148 Y41.873 E131.37996
G1 X23.923 Y41.85 E131.3856
G1 X23.379 Y41.768 E131.39932
G1 X23.165 Y41.725 E131.40477
M204 S5000
M205 X30 Y30
G1 F2400 E126.40477
G0 F7200 X23.663 Y16.4
M204 S500
M205 X20 Y20
G1 F2400 E131.40477
G1 F1500 X24.171 Y16.337 E131.41753
G1 X24.367 Y16.322 E131.42244
G1 X24.848 Y16.306 E131.43444
G1 X34.88 Y16.31 E131.68469
G1 X35.487 Y16.34 E131.69985
G1 X35.712 Y16.363 E131.70549
M204 S5000
M205 X30 Y30
G0 F7200 X35.958 Y16.4
M204 S500
M205 X20 Y20
G1 F1500 X23.663 Y16.4 E132.0122
M204 S5000
M205 X30 Y30
G1 F2400 E127.0122
G0 F7200 X34.218 Y33.507
;TIME_ELAPSED:133.229783
;LAYER:0
M106 S178.5
;MESH:cube.STL
G0 F2880 X34.218 Y33.507 Z1.025
M204 S500
M205 X20 Y20
;TYPE:WALL-INNER
G1 F2400 E132.0122
G1 F1200 X25.418 Y33.507 E132.30488
G1 X25.418 Y24.707 E132.59757
G1 X34.218 Y24.707 E132.89026
G1 X34.218 Y33.507 E133.18295
M204 S5000
M205 X30 Y30
G0 F2880 X34.618 Y33.907
M204 S500
M205 X20 Y20
;TYPE:WALL-OUTER
G1 F1200 X25.018 Y33.907 E133.50225
G1 X25.018 Y24.307 E133.82155
