;FLAVOR:Marlin
;TIME:141
;Filament used: 0.113835m
;Layer height: 0.15
;Generated with Cura_SteamEngine 3.6.0
M140 S60
M105
M190 S60
M104 S200
M105
M109 S200
M82 ;absolute extrusion mode
G92 E0
G1 F2400 E-5
;LAYER_COUNT:8
;LAYER:-5
M107
M204 S5000
M205 X30 Y30
G0 F7200 X25.813 Y28.136 Z0.3
M204 S500
M205 X20 Y20
;TYPE:SUPPORT-INTERFACE
G1 F2400 E0
G1 F1125 X26.123 Y27.85 E0.04209
G1 X26.479 Y27.616 E0.08459
G1 X26.864 Y27.445 E0.12663
G1 X27.22 Y27.349 E0.16342
G1 X27.32 Y27.33 E0.17357
G1 X27.653 Y27.294 E0.207
G1 X37.591 Y27.29 E1.19861
G1 X37.954 Y27.311 E1.23489
G1 X38.374 Y27.385 E1.27745
G1 X38.769 Y27.523 E1.3192
G1 X39.147 Y27.728 E1.3621
G1 X39.475 Y27.986 E1.40374
G1 X39.759 Y28.294 E1.44555
G1 X39.993 Y28.65 E1.48805
G1 X40.164 Y29.035 E1.53009
G1 X40.26 Y29.391 E1.56688
G1 X40.279 Y29.493 E1.57723
G1 X40.315 Y29.817 E1.60976
G1 X40.319 Y39.754 E2.60128
G1 X40.298 Y40.125 E2.63836
G1 X40.224 Y40.545 E2.68091
G1 X40.086 Y40.94 E2.72266
G1 X39.886 Y41.31 E2.76462
G1 X39.625 Y41.644 E2.80692
G1 X39.315 Y41.93 E2.84901
G1 X38.959 Y42.164 E2.89151
G1 X38.585 Y42.332 E2.93242
G1 X38.218 Y42.432 E2.97038
G1 X38.118 Y42.45 E2.98052
G1 X37.785 Y42.486 E3.01394
G1 X27.847 Y42.49 E4.00555
G1 X27.484 Y42.469 E4.04184
G1 X27.064 Y42.395 E4.08439
G1 X26.669 Y42.257 E4.12614
G1 X26.299 Y42.057 E4.16811
G1 X25.965 Y41.796 E4.2104
G1 X25.679 Y41.486 E4.25249
G1 X25.439 Y41.12 E4.29616
G1 X25.274 Y40.745 E4.33704
G1 X25.178 Y40.389 E4.37383
G1 X25.159 Y40.287 E4.38418
G1 X25.123 Y39.95 E4.418
G1 X25.119 Y30.019 E5.40892
G1 X25.14 Y29.655 E5.4453
G1 X25.214 Y29.235 E5.48785
G1 X25.352 Y28.84 E5.5296
G1 X25.552 Y28.47 E5.57157
G1 X25.813 Y28.136 E5.61386
M204 S5000
M205 X30 Y30
G0 F7200 X25.6 Y28.408
M204 S500
M205 X20 Y20
G1 F1125 X25.6 Y41.365 E6.90672
M204 S5000
M205 X30 Y30
G0 F7200 X27.2 Y42.418
M204 S500
M205 X20 Y20
G1 F1125 X27.2 Y27.354 E8.40981
M204 S5000
M205 X30 Y30
G0 F7200 X28.8 Y27.293
M204 S500
M205 X20 Y20
G1 F1125 X28.8 Y42.49 E9.92617
M204 S5000
M205 X30 Y30
G0 F7200 X30.4 Y42.489
M204 S500
M205 X20 Y20
G1 F1125 X30.4 Y27.292 E11.44253
M204 S5000
M205 X30 Y30
G0 F7200 X32 Y27.292
M204 S500
M205 X20 Y20
G1 F1125 X32 Y42.489 E12.9589
M204 S5000
M205 X30 Y30
G0 F7200 X33.6 Y42.488
M204 S500
M205 X20 Y20
G1 F1125 X33.6 Y27.291 E14.47526
M204 S5000
M205 X30 Y30
G0 F7200 X35.2 Y27.29
M204 S500
M205 X20 Y20
G1 F1125 X35.2 Y42.488 E15.99172
M204 S5000
M205 X30 Y30
G0 F7200 X36.8 Y42.487
M204 S500
M205 X20 Y20
G1 F1125 X36.8 Y27.29 E17.50808
M204 S5000
M205 X30 Y30
G0 F7200 X38.4 Y27.395
M204 S500
M205 X20 Y20
G1 F1125 X38.4 Y42.383 E19.00359
M204 S5000
M205 X30 Y30
G0 F7200 X40 Y41.1
M204 S500
M205 X20 Y20
G1 F1125 X40 Y28.666 E20.24426
M204 S5000
M205 X30 Y30
G1 F2400 E15.24426
G0 F7200 X25.341 Y40.897
;TIME_ELAPSED:19.782863
;LAYER:-4
M140 S60
G0 X25.341 Y40.897 Z0.525
M204 S500
M205 X20 Y20
;TYPE:SUPPORT
G1 F2400 E20.24426
G1 F1125 X26.716 Y42.272 E20.38978
G1 X26.669 Y42.256 E20.3935
G1 X26.298 Y42.055 E20.42508
G1 X25.964 Y41.795 E20.45675
G1 X25.678 Y41.485 E20.48832
G1 X25.438 Y41.119 E20.52107
M204 S5000
M205 X30 Y30
G0 F7200 X26.716 Y42.272
M204 S500
M205 X20 Y20
G1 F1125 X27.063 Y42.393 E20.54857
G1 X27.484 Y42.468 E20.58057
G1 X27.846 Y42.489 E20.60771
G1 X28.346 Y42.488 E20.64513
G1 X25.122 Y39.264 E20.98633
G1 X25.121 Y37.849 E21.09222
G1 X29.76 Y42.488 E21.58318
G1 X31.174 Y42.487 E21.689
G1 X25.121 Y36.435 E22.32955
G1 X25.12 Y35.02 E22.43545
G1 X32.587 Y42.487 E23.2257
G1 X34.001 Y42.486 E23.33152
G1 X25.119 Y33.605 E24.27148
G1 X25.119 Y32.191 E24.37729
G1 X35.415 Y42.486 E25.4669
G1 X36.828 Y42.485 E25.57264
G1 X25.119 Y30.776 E26.81184
G1 X25.119 Y30.018 E26.86857
G1 X25.139 Y29.653 E26.89592
G1 X25.18 Y29.422 E26.91348
G1 X38.192 Y42.435 E28.29063
G1 X38.218 Y42.431 E28.2926
G1 X38.584 Y42.33 E28.32101
G1 X38.958 Y42.163 E28.35167
G1 X39.185 Y42.013 E28.37203
G1 X25.59 Y28.419 E29.81078
G1 X25.812 Y28.135 E29.83775
G1 X26.122 Y27.849 E29.86932
G1 X26.311 Y27.725 E29.88623
G1 X39.89 Y41.304 E31.32334
G1 X40.086 Y40.939 E31.35434
G1 X40.224 Y40.544 E31.38565
G1 X40.271 Y40.271 E31.40639
G1 X27.328 Y27.328 E32.77618
G1 X27.652 Y27.294 E32.80056
G1 X28.708 Y27.294 E32.87959
G1 X40.318 Y38.904 E34.10831
G1 X40.317 Y37.489 E34.2142
G1 X30.122 Y27.293 E35.29322
G1 X31.535 Y27.292 E35.39897
G1 X40.317 Y36.074 E36.32839
G1 X40.316 Y34.659 E36.43429
G1 X32.949 Y27.292 E37.21396
G1 X34.362 Y27.291 E37.3197
G1 X40.316 Y33.245 E37.94983
G1 X40.315 Y31.83 E38.05572
G1 X35.776 Y27.291 E38.5361
G1 X37.19 Y27.29 E38.64192
G1 X40.314 Y30.415 E38.97259
G1 X40.314 Y29.816 E39.01742
G1 X40.278 Y29.493 E39.04174
G1 X40.259 Y29.39 E39.04958
G1 X40.163 Y29.035 E39.0771
G1 X40.015 Y28.701 E39.10444
G1 X38.917 Y27.604 E39.22059
G1 X39.146 Y27.727 E39.24004
G1 X39.474 Y27.986 E39.27132
G1 X39.757 Y28.294 E39.30262
G1 X39.991 Y28.649 E39.33444
M204 S5000
M205 X30 Y30
G0 F7200 X38.423 Y27.19
;TIME_ELAPSED:33.882646
;LAYER:-3
G0 X38.423 Y27.19 Z0.675
M204 S500
M205 X20 Y20
;TYPE:SUPPORT-INTERFACE
G1 F1500 X37.979 Y27.11 E39.34569
G1 X37.599 Y27.089 E39.35519
G1 X27.654 Y27.094 E39.60326
G1 X27.279 Y27.134 E39.61267
G1 X27.175 Y27.153 E39.61531
G1 X27.004 Y27.2 E39.61973
G1 X38.452 Y27.2 E39.9053
G1 X38.845 Y27.336 E39.91568
G1 X39.254 Y27.559 E39.9273
G1 X39.307 Y27.6 E39.92897
G1 X26.141 Y27.6 E40.2574
G1 X25.96 Y27.724 E40.26287
G1 X25.672 Y28 E40.27282
G1 X39.76 Y28 E40.62425
G1 X39.924 Y28.179 E40.6303
G1 X40.073 Y28.4 E40.63695
G1 X25.364 Y28.4 E41.00387
G1 X25.167 Y28.763 E41.01417
G1 X25.155 Y28.8 E41.01514
G1 X40.282 Y28.8 E41.39249
G1 X40.332 Y28.911 E41.39552
G1 X40.354 Y28.972 E41.39714
G1 X40.417 Y29.2 E41.40304
G1 X25.017 Y29.2 E41.7872
G1 X24.946 Y29.6 E41.79733
G1 X40.492 Y29.6 E42.18513
G1 X40.515 Y29.811 E42.19042
G1 X40.516 Y30 E42.19514
G1 X24.919 Y30 E42.58421
G1 X24.918 Y30.01 E42.58446
G1 X24.918 Y30.4 E42.59419
G1 X40.516 Y30.4 E42.98328
G1 X40.516 Y30.8 E42.99326
G1 X24.918 Y30.8 E43.38235
G1 X24.918 Y31.2 E43.39233
G1 X40.516 Y31.2 E43.78142
G1 X40.516 Y31.6 E43.7914
G1 X24.918 Y31.6 E44.18049
G1 X24.918 Y32 E44.19047
G1 X40.516 Y32 E44.57957
G1 X40.517 Y32.4 E44.58954
G1 X24.918 Y32.4 E44.97866
G1 X24.919 Y32.8 E44.98864
G1 X40.517 Y32.8 E45.37773
G1 X40.517 Y33.2 E45.38771
G1 X24.919 Y33.2 E45.77681
G1 X24.919 Y33.6 E45.78678
G1 X40.517 Y33.6 E46.17588
G1 X40.517 Y34 E46.18586
G1 X24.919 Y34 E46.57495
G1 X24.919 Y34.4 E46.58493
G1 X40.517 Y34.4 E46.97402
G1 X40.518 Y34.8 E46.984
G1 X24.919 Y34.8 E47.37312
G1 X24.92 Y35.2 E47.3831
G1 X40.518 Y35.2 E47.77219
G1 X40.518 Y35.6 E47.78217
G1 X24.92 Y35.6 E48.17126
G1 X24.92 Y36 E48.18124
G1 X40.518 Y36 E48.57033
G1 X40.518 Y36.4 E48.58031
G1 X24.92 Y36.4 E48.9694
G1 X24.92 Y36.8 E48.97938
G1 X40.518 Y36.8 E49.36848
G1 X40.518 Y37.2 E49.37845
G1 X24.92 Y37.2 E49.76755
G1 X24.921 Y37.6 E49.77753
G1 X40.519 Y37.6 E50.16662
G1 X40.519 Y38 E50.1766
G1 X24.921 Y38 E50.56569
G1 X24.921 Y38.4 E50.57567
G1 X40.519 Y38.4 E50.96476
G1 X40.519 Y38.8 E50.97474
G1 X24.921 Y38.8 E51.36384
G1 X24.921 Y39.2 E51.37381
G1 X40.519 Y39.2 E51.76291
G1 X40.519 Y39.6 E51.77289
G1 X24.921 Y39.6 E52.16198
G1 X24.922 Y39.958 E52.17091
G1 X24.926 Y40 E52.17196
G1 X40.506 Y40 E52.56061
G1 X40.498 Y40.15 E52.56435
G1 X40.453 Y40.4 E52.57069
G1 X24.974 Y40.4 E52.95682
G1 X24.981 Y40.434 E52.95768
G1 X25.081 Y40.8 E52.96715
G1 X40.346 Y40.8 E53.34793
G1 X40.271 Y41.017 E53.35366
G1 X40.172 Y41.2 E53.35885
G1 X25.255 Y41.2 E53.73096
G1 X25.26 Y41.211 E53.73126
G1 X25.299 Y41.281 E53.73326
G1 X25.518 Y41.6 E53.74291
G1 X39.915 Y41.6 E54.10204
G1 X39.812 Y41.736 E54.1063
G1 X39.536 Y42 E54.11583
G1 X25.894 Y42 E54.45613
G1 X26.182 Y42.22 E54.46517
G1 X26.512 Y42.4 E54.47454
G1 X38.918 Y42.4 E54.78401
G1 X38.641 Y42.523 E54.79157
G1 X38.26 Y42.627 E54.80143
G1 X38.159 Y42.646 E54.80399
G1 X37.784 Y42.686 E54.8134
G1 X27.838 Y42.69 E55.0615
G1 X27.458 Y42.669 E55.07099
G1 X27.014 Y42.589 E55.08225
G1 X26.588 Y42.441 E55.0935
M204 S5000
M205 X30 Y30
G1 F2400 E50.0935
G0 F7200 X37.119 Y39.29
;TIME_ELAPSED:60.085125
;LAYER:0
M106 S178.5
;MESH:tile.STL
G0 F2880 X37.119 Y39.29 Z1.025
M204 S500
M205 X20 Y20
;TYPE:WALL-INNER
G1 F2400 E55.0935
G1 F1200 X28.319 Y39.29 E55.38619
G1 X28.319 Y30.49 E55.67888
G1 X37.119 Y30.49 E55.97157
G1 X37.119 Y39.29 E56.26425
M204 S5000
M205 X30 Y30
G0 F2880 X37.519 Y39.69
M204 S500
M205 X20 Y20
;TYPE:WALL-OUTER
G1 F1200 X27.919 Y39.69 E56.58355
G1 X27.919 Y30.09 E56.90285
G1 X37.519 Y30.09 E57.22215
G1 X37.519 Y39.69 E57.54144
M204 S5000
M205 X30 Y30
G0 F2880 X37.319 Y39.69
G0 X37.249 Y39.42
G0 X37.009 Y38.9
G0 X36.729 Y38.9
M204 S500
M205 X20 Y20
;TYPE:SKIN
G1 F1200 X28.709 Y38.9 E57.80819
G1 X28.709 Y30.88 E58.07494
G1 X36.729 Y30.88 E58.34168
G1 X36.729 Y38.9 E58.60843
M204 S5000
M205 X30 Y30
G0 F2880 X37.009 Y38.9
G0 X37.009 Y31.457
G0 X36.548 Y31.457
M204 S500
M205 X20 Y20
G1 F1200 X36.15 Y31.059 E58.62715
M204 S5000
M205 X30 Y30
G0 F2880 X35.585 Y31.059
M204 S500
M205 X20 Y20
G1 F1200 X36.548 Y32.023 E58.67247
M204 S5000
M205 X30 Y30
G0 F2880 X36.548 Y32.589
M204 S500
M205 X20 Y20
G1 F1200 X35.019 Y31.059 E58.74441
M204 S5000
M205 X30 Y30
G0 F2880 X34.453 Y31.059
M204 S500
M205 X20 Y20
G1 F1200 X36.548 Y33.154 E58.84296
M204 S5000
M205 X30 Y30
G0 F2880 X36.548 Y33.72
M204 S500
M205 X20 Y20
G1 F1200 X33.888 Y31.059 E58.9681
M204 S5000
M205 X30 Y30
G0 F2880 X33.322 Y31.059
M204 S500
M205 X20 Y20
G1 F1200 X36.548 Y34.286 E59.11986
M204 S5000
M205 X30 Y30
G0 F2880 X36.548 Y34.851
M204 S500
M205 X20 Y20
G1 F1200 X32.756 Y31.059 E59.29823
M204 S5000
M205 X30 Y30
G0 F2880 X32.191 Y31.059
M204 S500
M205 X20 Y20
G1 F1200 X36.548 Y35.417 E59.50319
M204 S5000
M205 X30 Y30
G0 F2880 X36.548 Y35.983
M204 S500
M205 X20 Y20
G1 F1200 X31.625 Y31.059 E59.73478
M204 S5000
M205 X30 Y30
G0 F2880 X31.059 Y31.059
M204 S500
M205 X20 Y20
G1 F1200 X36.548 Y36.548 E59.99296
M204 S5000
M205 X30 Y30
G0 F2880 X36.548 Y37.114
M204 S500
M205 X20 Y20
G1 F1200 X30.493 Y31.059 E60.27777
M204 S5000
M205 X30 Y30
G0 F2880 X29.928 Y31.059
M204 S500
M205 X20 Y20
G1 F1200 X36.548 Y37.68 E60.58918
M204 S5000
M205 X30 Y30
G0 F2880 X36.548 Y38.245
M204 S500
M205 X20 Y20
G1 F1200 X29.362 Y31.059 E60.92719
M204 S5000
M205 X30 Y30
G0 F2880 X28.888 Y31.151
M204 S500
M205 X20 Y20
G1 F1200 X36.456 Y38.719 E61.28316
M204 S5000
M205 X30 Y30
G0 F2880 X35.89 Y38.719
M204 S500
M205 X20 Y20
G1 F1200 X28.888 Y31.717 E61.61251
M204 S5000
M205 X30 Y30
G0 F2880 X28.888 Y32.282
M204 S500
M205 X20 Y20
G1 F1200 X35.324 Y38.719 E61.91527
M204 S5000
M205 X30 Y30
G0 F2880 X34.759 Y38.719
M204 S500
M205 X20 Y20
G1 F1200 X28.888 Y32.848 E62.19142
M204 S5000
M205 X30 Y30
G0 F2880 X28.888 Y33.414
M204 S500
M205 X20 Y20
G1 F1200 X34.193 Y38.719 E62.44095
M204 S5000
M205 X30 Y30
G0 F2880 X33.627 Y38.719
M204 S500
M205 X20 Y20
G1 F1200 X28.888 Y33.98 E62.66386
M204 S5000
M205 X30 Y30
G0 F2880 X28.888 Y34.545
M204 S500
M205 X20 Y20
G1 F1200 X33.062 Y38.719 E62.86019
M204 S5000
M205 X30 Y30
G0 F2880 X32.496 Y38.719
M204 S500
M205 X20 Y20
G1 F1200 X28.888 Y35.111 E63.0299
M204 S5000
M205 X30 Y30
G0 F2880 X28.888 Y35.677
M204 S500
M205 X20 Y20
G1 F1200 X31.93 Y38.719 E63.17299
M204 S5000
M205 X30 Y30
G0 F2880 X31.365 Y38.719
M204 S500
M205 X20 Y20
G1 F1200 X28.888 Y36.242 E63.2895
M204 S5000
M205 X30 Y30
G0 F2880 X28.888 Y36.808
M204 S500
M205 X20 Y20
G1 F1200 X30.799 Y38.719 E63.37939
M204 S5000
M205 X30 Y30
G0 F2880 X30.233 Y38.719
M204 S500
M205 X20 Y20
G1 F1200 X28.888 Y37.374 E63.44265
M204 S5000
M205 X30 Y30
G0 F2880 X28.888 Y37.939
M204 S500
M205 X20 Y20
G1 F1200 X29.668 Y38.719 E63.47934
M204 S5000
M205 X30 Y30
G0 F2880 X29.102 Y38.719
M204 S500
M205 X20 Y20
G1 F1200 X28.888 Y38.505 E63.4894
M204 S5000
M205 X30 Y30
G0 F2880 X28.519 Y38.505
;MESH:NONMESH
G0 X28.429 Y38.505
G0 X28.501 Y39.108
G0 X37.119 Y39.29
;TIME_ELAPSED:74.112940
;LAYER:1
;MESH:tile.STL
G0 F5040 X37.119 Y39.29 Z1.15
M204 S500
M205 X20 Y20
;TYPE:WALL-INNER
G1 F2100 X28.319 Y39.29 E63.78209
G1 X28.319 Y30.49 E64.07478
G1 X37.119 Y30.49 E64.36747
G1 X37.119 Y39.29 E64.66016
M204 S5000
M205 X30 Y30
G0 F5040 X37.519 Y39.69
M204 S500
M205 X20 Y20
;TYPE:WALL-OUTER
G1 F1350 X27.919 Y39.69 E64.97946
G1 X27.919 Y30.09 E65.29876
G1 X37.519 Y30.09 E65.61805
G1 X37.519 Y39.69 E65.93735
M204 S5000
M205 X30 Y30
G0 F5040 X37.319 Y39.69
G0 X37.249 Y39.42
G0 X37.009 Y38.9
G0 X36.729 Y38.9
M204 S500
M205 X20 Y20
;TYPE:SKIN
G1 F1350 X28.709 Y38.9 E66.2041
G1 X28.709 Y30.88 E66.47084
G1 X36.729 Y30.88 E66.73759
G1 X36.729 Y38.9 E67.00434
M204 S5000
M205 X30 Y30
G0 F5040 X36.548 Y38.122
M204 S500
M205 X20 Y20
G1 F1350 X35.95 Y38.719 E67.03244
M204 S5000
M205 X30 Y30
G0 F5040 X35.385 Y38.719
M204 S500
M205 X20 Y20
G1 F1350 X36.548 Y37.556 E67.08714
M204 S5000
M205 X30 Y30
G0 F5040 X36.548 Y36.99
M204 S500
M205 X20 Y20
G1 F1350 X34.819 Y38.719 E67.16847
M204 S5000
M205 X30 Y30
G0 F5040 X34.253 Y38.719
M204 S500
M205 X20 Y20
G1 F1350 X36.548 Y36.425 E67.2764
M204 S5000
M205 X30 Y30
G0 F5040 X36.548 Y35.859
M204 S500
M205 X20 Y20
G1 F1350 X33.687 Y38.719 E67.41095
M204 S5000
M205 X30 Y30
G0 F5040 X33.122 Y38.719
M204 S500
M205 X20 Y20
G1 F1350 X36.548 Y35.293 E67.5721
M204 S5000
M205 X30 Y30
G0 F5040 X36.548 Y34.728
M204 S500
M205 X20 Y20
G1 F1350 X32.556 Y38.719 E67.75984
M204 S5000
M205 X30 Y30
G0 F5040 X31.99 Y38.719
M204 S500
M205 X20 Y20
G1 F1350 X36.548 Y34.162 E67.97421
M204 S5000
M205 X30 Y30
G0 F5040 X36.548 Y33.596
M204 S500
M205 X20 Y20
G1 F1350 X31.425 Y38.719 E68.21518
M204 S5000
M205 X30 Y30
G0 F5040 X30.859 Y38.719
M204 S500
M205 X20 Y20
G1 F1350 X36.548 Y33.031 E68.48275
M204 S5000
M205 X30 Y30
G0 F5040 X36.548 Y32.465
M204 S500
M205 X20 Y20
G1 F1350 X30.293 Y38.719 E68.77695
M204 S5000
M205 X30 Y30
G0 F5040 X29.728 Y38.719
M204 S500
M205 X20 Y20
G1 F1350 X36.548 Y31.899 E69.09774
M204 S5000
M205 X30 Y30
G0 F5040 X36.548 Y31.334
M204 S500
M205 X20 Y20
G1 F1350 X29.162 Y38.719 E69.44513
M204 S5000
M205 X30 Y30
G0 F5040 X28.888 Y38.427
M204 S500
M205 X20 Y20
G1 F1350 X36.256 Y31.059 E69.7917
M204 S5000
M205 X30 Y30
G0 F5040 X35.691 Y31.059
M204 S500
M205 X20 Y20
G1 F1350 X28.888 Y37.862 E70.11169
M204 S5000
M205 X30 Y30
G0 F5040 X28.888 Y37.296
M204 S500
M205 X20 Y20
G1 F1350 X35.125 Y31.059 E70.40506
M204 S5000
M205 X30 Y30
G0 F5040 X34.559 Y31.059
M204 S500
M205 X20 Y20
G1 F1350 X28.888 Y36.73 E70.67181
M204 S5000
M205 X30 Y30
G0 F5040 X28.888 Y36.164
M204 S500
M205 X20 Y20
G1 F1350 X33.994 Y31.059 E70.91195
M204 S5000
M205 X30 Y30
G0 F5040 X33.428 Y31.059
M204 S500
M205 X20 Y20
G1 F1350 X28.888 Y35.599 E71.1255
M204 S5000
M205 X30 Y30
G0 F5040 X28.888 Y35.033
M204 S500
M205 X20 Y20
G1 F1350 X32.862 Y31.059 E71.31243
M204 S5000
M205 X30 Y30
G0 F5040 X32.297 Y31.059
M204 S500
M205 X20 Y20
G1 F1350 X28.888 Y34.467 E71.47275
M204 S5000
M205 X30 Y30
G0 F5040 X28.888 Y33.902
M204 S500
M205 X20 Y20
G1 F1350 X31.731 Y31.059 E71.60648
M204 S5000
M205 X30 Y30
G0 F5040 X31.165 Y31.059
M204 S500
M205 X20 Y20
G1 F1350 X28.888 Y33.336 E71.71358
M204 S5000
M205 X30 Y30
G0 F5040 X28.888 Y32.77
M204 S500
M205 X20 Y20
G1 F1350 X30.6 Y31.059 E71.79408
M204 S5000
M205 X30 Y30
G0 F5040 X30.034 Y31.059
M204 S500
M205 X20 Y20
G1 F1350 X28.888 Y32.205 E71.84799
M204 S5000
M205 X30 Y30
G0 F5040 X28.888 Y31.639
M204 S500
M205 X20 Y20
G1 F1350 X29.468 Y31.059 E71.87527
G1 X29.538 Y30.989
M204 S5000
M205 X30 Y30
G0 F5040 X29.538 Y30.69
;MESH:NONMESH
G0 X29.538 Y30.6
G0 X36.937 Y30.672
G0 X37.119 Y39.29
;TIME_ELAPSED:86.028583
;LAYER:2
;MESH:tile.STL
G0 F7200 X37.119 Y39.29 Z1.35
M204 S500
M205 X20 Y20
;TYPE:WALL-INNER
G1 F2906.5 X28.319 Y39.29 E72.16796
G1 X28.319 Y30.49 E72.46065
G1 X37.119 Y30.49 E72.75334
G1 X37.119 Y39.29 E73.04603
M204 S5000
M205 X30 Y30
G0 F7200 X37.519 Y39.69
M204 S500
M205 X20 Y20
;TYPE:WALL-OUTER
G1 F1453.2 X27.919 Y39.69 E73.36532
G1 X27.919 Y30.09 E73.68462
G1 X37.519 Y30.09 E74.00392
G1 X37.519 Y39.69 E74.32322
M204 S5000
M205 X30 Y30
G0 F7200 X37.319 Y39.69
G0 X37.249 Y39.42
G0 X37.009 Y38.9
G0 X36.729 Y38.9
M204 S500
M205 X20 Y20
;TYPE:SKIN
G1 F1453.2 X28.709 Y38.9 E74.58996
G1 X28.709 Y30.88 E74.85671
G1 X36.729 Y30.88 E75.12345
