;FLAVOR:Marlin
;TIME:3993
;Filament used: 4.51488m
;Layer height: 0.15
;Generated with Cura_SteamEngine 3.6.0
M140 S60
M105
M190 S60
M104 S200
M105
M109 S200
M82 ;absolute extrusion mode
G92 E0
G1 F2400 E-5
;LAYER_COUNT:301
;LAYER:-5
M107
M204 S5000
M205 X30 Y30
G0 F7200 X18.02 Y19.303 Z0.3
M204 S500
M205 X20 Y20
;TYPE:SUPPORT-INTERFACE
G1 F2400 E0
G1 F1125 X18.431 Y18.943 E0.05452
G1 X18.598 Y18.81 E0.07582
G1 X19.026 Y18.504 E0.12832
G1 X19.228 Y18.375 E0.15223
G1 X19.671 Y18.12 E0.20324
G1 X19.894 Y18.007 E0.22818
G1 X20.37 Y17.794 E0.28021
G1 X20.583 Y17.711 E0.30302
G1 X21.075 Y17.548 E0.35474
G1 X21.323 Y17.479 E0.38042
G1 X21.829 Y17.365 E0.43218
G1 X22.05 Y17.327 E0.45455
G1 X22.59 Y17.262 E0.50882
G1 X22.795 Y17.246 E0.52934
G1 X23.263 Y17.23 E0.57607
G1 X43.281 Y17.234 E2.57347
G1 X43.885 Y17.264 E2.63381
G1 X44.094 Y17.285 E2.65477
G1 X44.637 Y17.367 E2.70957
G1 X44.832 Y17.406 E2.72941
G1 X45.372 Y17.544 E2.78502
G1 X45.572 Y17.606 E2.80592
G1 X46.08 Y17.792 E2.85989
G1 X46.3 Y17.884 E2.88369
G1 X46.774 Y18.113 E2.93621
G1 X46.961 Y18.216 E2.95752
G1 X47.418 Y18.496 E3.01099
G1 X47.618 Y18.632 E3.03513
G1 X48.026 Y18.942 E3.08626
G1 X48.215 Y19.103 E3.11103
G1 X48.601 Y19.463 E3.1637
G1 X48.756 Y19.621 E3.18578
G1 X49.116 Y20.032 E3.2403
G1 X49.245 Y20.193 E3.26088
G1 X49.554 Y20.625 E3.31388
G1 X49.684 Y20.829 E3.33802
G1 X49.936 Y21.267 E3.38844
G1 X50.055 Y21.501 E3.41463
G1 X50.265 Y21.971 E3.466
G1 X50.346 Y22.177 E3.48808
G1 X50.51 Y22.671 E3.54002
G1 X50.58 Y22.924 E3.56621
G1 X50.692 Y23.42 E3.61695
G1 X50.731 Y23.642 E3.63944
G1 X50.797 Y24.191 E3.69461
G1 X50.813 Y24.386 E3.71414
G1 X50.829 Y24.83 E3.75847
G1 X50.825 Y44.882 E5.75927
G1 X50.795 Y45.486 E5.81961
G1 X50.774 Y45.694 E5.84047
G1 X50.692 Y46.238 E5.89536
G1 X50.653 Y46.433 E5.9152
G1 X50.516 Y46.97 E5.9705
G1 X50.453 Y47.173 E5.99171
G1 X50.268 Y47.678 E6.04537
G1 X50.172 Y47.906 E6.07006
G1 X49.946 Y48.375 E6.122
G1 X49.843 Y48.562 E6.14331
G1 X49.563 Y49.019 E6.19678
G1 X49.427 Y49.219 E6.22092
G1 X49.117 Y49.627 E6.27205
G1 X48.956 Y49.816 E6.29682
G1 X48.601 Y50.197 E6.34878
G1 X48.438 Y50.357 E6.37157
G1 X48.032 Y50.713 E6.42545
G1 X47.866 Y50.846 E6.44667
G1 X47.435 Y51.154 E6.49953
G1 X47.23 Y51.285 E6.52381
G1 X46.787 Y51.54 E6.57481
G1 X46.564 Y51.653 E6.59975
G1 X46.088 Y51.866 E6.65179
G1 X45.875 Y51.949 E6.6746
G1 X45.383 Y52.112 E6.72631
G1 X45.135 Y52.181 E6.752
G1 X44.629 Y52.295 E6.80375
G1 X44.408 Y52.333 E6.82613
G1 X43.868 Y52.398 E6.8804
G1 X43.663 Y52.414 E6.90092
G1 X43.195 Y52.43 E6.94764
G1 X23.177 Y52.426 E8.94504
G1 X22.573 Y52.396 E9.00539
G1 X22.364 Y52.375 E9.02635
G1 X21.821 Y52.293 E9.08114
G1 X21.626 Y52.254 E9.10098
G1 X21.086 Y52.116 E9.1566
G1 X20.884 Y52.053 E9.17771
G1 X20.378 Y51.868 E9.23147
G1 X20.158 Y51.776 E9.25526
G1 X19.683 Y51.546 E9.30792
G1 X19.494 Y51.442 E9.32945
G1 X19.037 Y51.162 E9.38292
G1 X18.84 Y51.028 E9.4067
G1 X18.431 Y50.717 E9.45796
G1 X18.243 Y50.557 E9.4826
G1 X17.857 Y50.197 E9.53526
G1 X17.702 Y50.039 E9.55735
G1 X17.342 Y49.628 E9.61187
G1 X17.213 Y49.467 E9.63245
G1 X16.901 Y49.03 E9.68603
G1 X16.772 Y48.828 E9.70994
G1 X16.517 Y48.383 E9.76112
G1 X16.403 Y48.159 E9.7862
G1 X16.189 Y47.681 E9.83845
G1 X16.11 Y47.476 E9.86038
G1 X15.947 Y46.984 E9.91209
G1 X15.878 Y46.736 E9.93778
G1 X15.764 Y46.23 E9.98953
G1 X15.726 Y46.009 E10.01191
G1 X15.661 Y45.468 E10.06628
G1 X15.644 Y45.256 E10.0875
G1 X15.629 Y44.83 E10.13003
G1 X15.633 Y24.778 E12.13083
G1 X15.663 Y24.171 E12.19147
G1 X15.684 Y23.966 E12.21203
G1 X15.766 Y23.422 E12.26692
G1 X15.805 Y23.227 E12.28677
G1 X15.944 Y22.683 E12.34279
G1 X16.005 Y22.487 E12.36327
G1 X16.191 Y21.979 E12.41725
G1 X16.283 Y21.759 E12.44105
G1 X16.516 Y21.277 E12.49446
G1 X16.615 Y21.098 E12.51487
G1 X16.895 Y20.641 E12.56835
G1 X17.031 Y20.441 E12.59249
G1 X17.342 Y20.032 E12.64375
G1 X17.502 Y19.844 E12.66839
G1 X17.862 Y19.458 E12.72105
G1 X18.02 Y19.303 E12.74314
M204 S5000
M205 X30 Y30
G0 F7200 X17.6 Y19.738
M204 S500
M205 X20 Y20
G1 F1125 X17.6 Y49.922 E15.75491
M204 S5000
M205 X30 Y30
G0 F7200 X19.2 Y51.261
M204 S500
M205 X20 Y20
G1 F1125 X19.2 Y18.392 E19.03459
M204 S5000
M205 X30 Y30
G0 F7200 X20.8 Y17.639
M204 S500
M205 X20 Y20
G1 F1125 X20.8 Y52.022 E22.46534
M204 S5000
M205 X30 Y30
G0 F7200 X22.4 Y52.378
M204 S500
M205 X20 Y20
G1 F1125 X22.4 Y17.284 E25.96703
M204 S5000
M205 X30 Y30
G0 F7200 X24 Y17.231
M204 S500
M205 X20 Y20
G1 F1125 X24 Y52.426 E29.47881
M204 S5000
M205 X30 Y30
G0 F7200 X25.6 Y52.426
M204 S500
M205 X20 Y20
G1 F1125 X25.6 Y17.231 E32.99058
M204 S5000
M205 X30 Y30
G0 F7200 X27.2 Y17.231
M204 S500
M205 X20 Y20
G1 F1125 X27.2 Y52.426 E36.50235
M204 S5000
M205 X30 Y30
G0 F7200 X28.8 Y52.427
M204 S500
M205 X20 Y20
G1 F1125 X28.8 Y17.232 E40.01412
M204 S5000
M205 X30 Y30
G0 F7200 X30.4 Y17.232
M204 S500
M205 X20 Y20
G1 F1125 X30.4 Y52.427 E43.52589
M204 S5000
M205 X30 Y30
G0 F7200 X32 Y52.427
M204 S500
M205 X20 Y20
G1 F1125 X32 Y17.232 E47.03766
M204 S5000
M205 X30 Y30
G0 F7200 X33.6 Y17.233
M204 S500
M205 X20 Y20
G1 F1125 X33.6 Y52.428 E50.54943
M204 S5000
M205 X30 Y30
G0 F7200 X35.2 Y52.428
M204 S500
M205 X20 Y20
G1 F1125 X35.2 Y17.233 E54.06121
M204 S5000
M205 X30 Y30
G0 F7200 X36.8 Y17.233
M204 S500
M205 X20 Y20
G1 F1125 X36.8 Y52.428 E57.57298
M204 S5000
M205 X30 Y30
G0 F7200 X38.4 Y52.429
M204 S500
M205 X20 Y20
G1 F1125 X38.4 Y17.234 E61.08475
M204 S5000
M205 X30 Y30
G0 F7200 X40 Y17.234
M204 S500
M205 X20 Y20
G1 F1125 X40 Y52.429 E64.59652
M204 S5000
M205 X30 Y30
G0 F7200 X41.6 Y52.429
M204 S500
M205 X20 Y20
G1 F1125 X41.6 Y17.234 E68.10829
M204 S5000
M205 X30 Y30
G0 F7200 X43.2 Y17.234
M204 S500
M205 X20 Y20
G1 F1125 X43.2 Y52.43 E71.62016
M204 S5000
M205 X30 Y30
G0 F7200 X44.8 Y52.257
M204 S500
M205 X20 Y20
G1 F1125 X44.8 Y17.4 E75.09821
M204 S5000
M205 X30 Y30
G0 F7200 X46.4 Y17.933
M204 S500
M205 X20 Y20
G1 F1125 X46.4 Y51.727 E78.47019
M204 S5000
M205 X30 Y30
G0 F7200 X48 Y50.739
M204 S500
M205 X20 Y20
G1 F1125 X48 Y18.923 E81.6448
M204 S5000
M205 X30 Y30
G0 F7200 X49.6 Y20.698
M204 S500
M205 X20 Y20
G1 F1125 X49.6 Y48.959 E84.46469
M204 S5000
M205 X30 Y30
G1 F2400 E79.46469
G0 F7200 X16 Y47.143
M204 S500
M205 X20 Y20
G1 F2400 E84.46469
G1 F1125 X16 Y22.503 E86.92328
M204 S5000
M205 X30 Y30
G1 F2400 E81.92328
G0 F7200 X16.11 Y47.475
;TIME_ELAPSED:56.540697
;LAYER:-4
M140 S60
G0 X16.11 Y47.475 Z0.525
M204 S500
M205 X20 Y20
;TYPE:SUPPORT
G1 F2400 E86.92328
G1 F1125 X16.188 Y47.68 E86.9397
G1 X16.403 Y48.158 E86.97892
G1 X16.517 Y48.382 E86.99773
G1 X16.771 Y48.827 E87.03607
G1 X16.901 Y49.029 E87.05405
G1 X17.212 Y49.466 E87.09419
G1 X17.341 Y49.626 E87.10957
G1 X17.702 Y50.038 E87.15056
G1 X17.857 Y50.196 E87.16713
G1 X18.242 Y50.556 E87.20657
G1 X18.431 Y50.716 E87.2251
G1 X18.84 Y51.027 E87.26356
G1 X19.037 Y51.161 E87.28139
G1 X19.494 Y51.441 E87.32149
G1 X19.683 Y51.545 E87.33764
G1 X20.158 Y51.775 E87.37713
G1 X20.378 Y51.866 E87.39495
G1 X20.884 Y52.052 E87.43529
G1 X20.964 Y52.077 E87.44157
G1 X15.984 Y47.096 E87.96867
G1 X15.946 Y46.983 E87.97759
G1 X15.878 Y46.734 E87.9969
G1 X15.764 Y46.229 E88.03565
G1 X15.726 Y46.008 E88.05243
G1 X15.661 Y45.466 E88.09328
G1 X15.651 Y45.349 E88.10207
G1 X22.703 Y52.402 E88.84846
G1 X23.176 Y52.425 E88.88389
G1 X24.141 Y52.425 E88.95611
G1 X15.628 Y43.912 E89.85707
G1 X15.628 Y42.498 E89.96289
G1 X25.555 Y52.425 E91.01349
G1 X26.97 Y52.426 E91.11938
G1 X15.629 Y41.085 E92.31964
G1 X15.629 Y39.67 E92.42553
G1 X28.384 Y52.426 E93.77548
G1 X29.798 Y52.426 E93.8813
G1 X15.629 Y38.256 E95.3809
G1 X15.629 Y36.843 E95.48664
G1 X31.213 Y52.427 E97.13595
G1 X32.628 Y52.427 E97.24184
G1 X15.629 Y35.428 E99.0409
G1 X15.63 Y34.015 E99.14664
G1 X34.042 Y52.427 E101.09524
G1 X35.457 Y52.427 E101.20113
G1 X15.63 Y32.601 E103.29943
G1 X15.631 Y31.187 E103.40525
G1 X36.872 Y52.428 E105.65325
G1 X38.286 Y52.428 E105.75906
G1 X15.631 Y29.773 E108.15671
G1 X15.631 Y28.359 E108.26253
G1 X39.7 Y52.428 E110.80983
G1 X41.115 Y52.429 E110.91572
G1 X15.632 Y26.945 E113.61272
G1 X15.632 Y25.531 E113.71853
G1 X42.529 Y52.429 E116.56518
G1 X43.195 Y52.429 E116.61502
G1 X43.663 Y52.412 E116.65007
G1 X43.868 Y52.397 E116.66545
G1 X43.907 Y52.392 E116.66839
G1 X15.664 Y24.149 E119.65743
G1 X15.683 Y23.965 E119.67128
G1 X15.766 Y23.421 E119.71246
G1 X15.804 Y23.226 E119.72733
G1 X15.875 Y22.947 E119.74887
G1 X45.113 Y52.184 E122.84317
G1 X45.134 Y52.18 E122.84477
G1 X45.382 Y52.111 E122.86403
G1 X45.875 Y51.948 E122.90289
G1 X46.087 Y51.864 E122.91995
G1 X46.17 Y51.827 E122.92675
G1 X16.228 Y21.885 E126.09561
G1 X16.282 Y21.758 E126.10594
G1 X16.515 Y21.276 E126.146
G1 X16.615 Y21.097 E126.16134
G1 X16.706 Y20.948 E126.17441
G1 X47.11 Y51.352 E129.39216
G1 X47.229 Y51.284 E129.40242
G1 X47.434 Y51.152 E129.42066
G1 X47.865 Y50.845 E129.46026
G1 X47.949 Y50.778 E129.4683
G1 X17.281 Y20.11 E132.71399
G1 X17.341 Y20.031 E132.72142
G1 X17.501 Y19.843 E132.73989
G1 X17.862 Y19.457 E132.77944
G1 X17.954 Y19.368 E132.78902
G1 X48.688 Y50.102 E136.0417
G1 X48.955 Y49.815 E136.07103
G1 X49.117 Y49.626 E136.08966
G1 X49.337 Y49.337 E136.11684
G1 X18.721 Y18.721 E139.35703
G1 X19.025 Y18.503 E139.38502
G1 X19.227 Y18.374 E139.40296
G1 X19.584 Y18.17 E139.43373
G1 X49.889 Y48.475 E142.641
G1 X49.945 Y48.375 E142.64958
G1 X50.171 Y47.905 E142.6886
G1 X50.267 Y47.678 E142.70705
G1 X50.331 Y47.503 E142.72099
G1 X20.551 Y17.722 E145.87276
G1 X20.581 Y17.71 E145.87517
G1 X21.073 Y17.548 E145.91394
G1 X21.322 Y17.478 E145.93329
G1 X21.648 Y17.406 E145.95828
G1 X50.656 Y46.413 E149.02823
G1 X50.691 Y46.237 E149.04166
G1 X50.773 Y45.693 E149.08283
G1 X50.794 Y45.485 E149.09848
G1 X50.811 Y45.154 E149.12328
G1 X22.899 Y17.242 E152.07729
G1 X23.261 Y17.23 E152.1044
G1 X24.301 Y17.23 E152.18223
G1 X50.825 Y43.754 E154.98934
G1 X50.825 Y42.34 E155.09516
G1 X25.716 Y17.23 E157.75258
G1 X27.13 Y17.23 E157.85839
G1 X50.825 Y40.925 E160.36611
G1 X50.826 Y39.512 E160.47185
G1 X28.545 Y17.231 E162.82992
G1 X29.959 Y17.231 E162.93574
G1 X50.826 Y38.098 E165.14416
G1 X50.826 Y36.684 E165.24997
G1 X31.374 Y17.232 E167.30864
G1 X32.788 Y17.232 E167.41446
G1 X50.826 Y35.27 E169.32347
G1 X50.826 Y33.856 E169.42929
G1 X34.202 Y17.232 E171.18866
G1 X35.617 Y17.232 E171.29455
G1 X50.827 Y32.442 E172.90427
G1 X50.827 Y31.028 E173.01009
G1 X37.031 Y17.232 E174.47016
G1 X38.446 Y17.232 E174.57606
G1 X50.827 Y29.614 E175.88643
G1 X50.828 Y28.2 E175.99225
G1 X39.861 Y17.233 E177.15292
G1 X41.275 Y17.233 E177.25873
G1 X50.828 Y26.786 E178.26976
G1 X50.828 Y25.372 E178.37558
G1 X42.689 Y17.233 E179.23695
G1 X43.28 Y17.233 E179.28118
G1 X43.883 Y17.264 E179.32636
G1 X44.093 Y17.285 E179.34216
G1 X44.166 Y17.296 E179.34768
G1 X50.76 Y23.89 E180.04555
G1 X50.729 Y23.642 E180.06425
G1 X50.691 Y23.42 E180.0811
G1 X50.579 Y22.924 E180.11916
G1 X50.509 Y22.67 E180.13887
G1 X50.345 Y22.176 E180.17783
G1 X50.269 Y21.985 E180.19321
G1 X46.075 Y17.79 E180.63713
G1 X46.299 Y17.883 E180.65528
G1 X46.773 Y18.113 E180.6947
G1 X46.96 Y18.216 E180.71068
G1 X47.417 Y18.496 E180.75079
G1 X47.617 Y18.631 E180.76885
G1 X48.025 Y18.941 E180.80719
G1 X48.214 Y19.103 E180.82582
G1 X48.6 Y19.463 E180.86532
G1 X48.755 Y19.62 E180.88183
G1 X49.115 Y20.032 E180.92278
G1 X49.244 Y20.193 E180.93822
G1 X49.553 Y20.625 E180.97796
G1 X49.683 Y20.829 E180.99607
G1 X49.935 Y21.266 E181.03382
G1 X50.053 Y21.5 E181.05343
G1 X50.263 Y21.971 E181.09202
M204 S5000
M205 X30 Y30
G1 F2400 E176.09202
G0 F7200 X21.652 Y17.2
;TIME_ELAPSED:124.543993
;LAYER:-3
G0 X21.652 Y17.2 Z0.675
M204 S500
M205 X20 Y20
;TYPE:SUPPORT-INTERFACE
G1 F2400 E181.09202
G1 F1500 X21.269 Y17.286 E181.10181
G1 X21.022 Y17.354 E181.1082
G1 X20.513 Y17.523 E181.12158
G1 X20.314 Y17.6 E181.1269
G1 X46.141 Y17.6 E181.77116
G1 X46.377 Y17.698 E181.77754
G1 X46.859 Y17.931 E181.79089
G1 X46.984 Y18 E181.79445
G1 X19.479 Y18 E182.48057
G1 X19.137 Y18.197 E182.49041
G1 X18.908 Y18.343 E182.49719
G1 X18.829 Y18.4 E182.49962
G1 X47.636 Y18.4 E183.21821
G1 X47.722 Y18.459 E183.22081
G1 X48.145 Y18.781 E183.23407
G1 X48.168 Y18.8 E183.23482
G1 X18.29 Y18.8 E183.98013
G1 X17.89 Y19.151 E183.9934
G1 X17.84 Y19.2 E183.99515
G1 X48.615 Y19.2 E184.76283
G1 X48.731 Y19.309 E184.76681
G1 X48.908 Y19.49 E184.77312
G1 X49.005 Y19.6 E184.77678
G1 X17.456 Y19.6 E185.56377
G1 X17.362 Y19.7 E185.5672
G1 X17.181 Y19.914 E185.57419
G1 X17.116 Y20 E185.57688
G1 X49.348 Y20 E186.38091
G1 X49.4 Y20.066 E186.383
G1 X49.639 Y20.4 E186.39325
G1 X16.816 Y20.4 E187.21202
G1 X16.734 Y20.52 E187.21565
G1 X16.564 Y20.8 E187.22382
G1 X49.899 Y20.8 E188.05536
G1 X50.115 Y21.176 E188.06618
G1 X50.128 Y21.2 E188.06686
G1 X16.33 Y21.2 E188.90995
G1 X16.137 Y21.6 E188.92103
G1 X50.32 Y21.6 E189.77373
G1 X50.449 Y21.888 E189.7816
G1 X50.493 Y22 E189.78461
G1 X15.97 Y22 E190.64579
G1 X15.823 Y22.4 E190.65642
G1 X50.632 Y22.4 E191.52473
G1 X50.703 Y22.616 E191.5304
G1 X50.755 Y22.8 E191.53517
G1 X15.707 Y22.8 E192.40945
G1 X15.61 Y23.178 E192.41918
G1 X15.606 Y23.2 E192.41974
G1 X50.848 Y23.2 E193.29885
G1 X50.889 Y23.385 E193.30358
G1 X50.927 Y23.6 E193.30903
G1 X15.536 Y23.6 E194.19186
G1 X15.485 Y23.936 E194.20034
G1 X15.479 Y24 E194.20194
G1 X50.976 Y24 E195.08742
G1 X50.998 Y24.182 E195.09199
G1 X51.013 Y24.378 E195.09689
G1 X51.014 Y24.4 E195.09744
G1 X15.451 Y24.4 E195.98457
G1 X15.432 Y24.768 E195.99376
G1 X15.432 Y24.8 E195.99456
G1 X51.028 Y24.8 E196.8825
G1 X51.029 Y24.829 E196.88323
G1 X51.028 Y25.2 E196.89248
G1 X15.432 Y25.2 E197.78043
G1 X15.432 Y25.6 E197.7904
G1 X51.028 Y25.6 E198.67835
G1 X51.028 Y26 E198.68833
G1 X15.432 Y26 E199.57627
G1 X15.432 Y26.4 E199.58625
G1 X51.028 Y26.4 E200.4742
G1 X51.028 Y26.8 E200.48418
G1 X15.432 Y26.8 E201.37212
G1 X15.432 Y27.2 E201.3821
G1 X51.028 Y27.2 E202.27005
G1 X51.028 Y27.6 E202.28002
G1 X15.432 Y27.6 E203.16797
G1 X15.432 Y28 E203.17795
G1 X51.028 Y28 E204.06589
G1 X51.028 Y28.4 E204.07587
G1 X15.432 Y28.4 E204.96382
G1 X15.432 Y28.8 E204.9738
G1 X51.028 Y28.8 E205.86174
G1 X51.028 Y29.2 E205.87172
G1 X15.432 Y29.2 E206.75967
G1 X15.432 Y29.6 E206.76964
G1 X51.028 Y29.6 E207.65759
G1 X51.027 Y30 E207.66757
G1 X15.431 Y30 E208.55551
G1 X15.431 Y30.4 E208.56549
G1 X51.027 Y30.4 E209.45344
G1 X51.027 Y30.8 E209.46341
G1 X15.431 Y30.8 E210.35136
G1 X15.431 Y31.2 E210.36134
G1 X51.027 Y31.2 E211.24928
G1 X51.027 Y31.6 E211.25926
G1 X15.431 Y31.6 E212.14721
G1 X15.431 Y32 E212.15719
G1 X51.027 Y32 E213.04513
G1 X51.027 Y32.4 E213.05511
G1 X15.431 Y32.4 E213.94306
G1 X15.431 Y32.8 E213.95303
G1 X51.027 Y32.8 E214.84098
G1 X51.027 Y33.2 E214.85096
G1 X15.431 Y33.2 E215.7389
G1 X15.431 Y33.6 E215.74888
G1 X51.027 Y33.6 E216.63683
G1 X51.027 Y34 E216.64681
G1 X15.431 Y34 E217.53475
G1 X15.431 Y34.4 E217.54473
G1 X51.027 Y34.4 E218.43268
G1 X51.027 Y34.8 E218.44265
G1 X15.43 Y34.8 E219.33062
G1 X15.43 Y35.2 E219.3406
G1 X51.026 Y35.2 E220.22855
G1 X51.026 Y35.6 E220.23853
G1 X15.43 Y35.6 E221.12647
G1 X15.43 Y36 E221.13645
G1 X51.026 Y36 E222.0244
G1 X51.026 Y36.4 E222.03437
G1 X15.43 Y36.4 E222.92232
G1 X15.43 Y36.8 E222.9323
G1 X51.026 Y36.8 E223.82024
G1 X51.026 Y37.2 E223.83022
G1 X15.43 Y37.2 E224.71817
G1 X15.43 Y37.6 E224.72815
G1 X51.026 Y37.6 E225.61609
G1 X51.026 Y38 E225.62607
G1 X15.43 Y38 E226.51402
G1 X15.43 Y38.4 E226.52399
G1 X51.026 Y38.4 E227.41194
G1 X51.026 Y38.8 E227.42192
G1 X15.43 Y38.8 E228.30986
G1 X15.43 Y39.2 E228.31984
G1 X51.026 Y39.2 E229.20779
G1 X51.026 Y39.6 E229.21776
G1 X15.43 Y39.6 E230.10571
G1 X15.429 Y40 E230.11569
G1 X51.025 Y40 E231.00363
G1 X51.025 Y40.4 E231.01361
G1 X15.429 Y40.4 E231.90156
G1 X15.429 Y40.8 E231.91154
G1 X51.025 Y40.8 E232.79948
G1 X51.025 Y41.2 E232.80946
G1 X15.429 Y41.2 E233.69741
G1 X15.429 Y41.6 E233.70738
G1 X51.025 Y41.6 E234.59533
G1 X51.025 Y42 E234.60531
G1 X15.429 Y42 E235.49325
G1 X15.429 Y42.4 E235.50323
G1 X51.025 Y42.4 E236.39118
G1 X51.025 Y42.8 E236.40116
G1 X15.429 Y42.8 E237.2891
G1 X15.429 Y43.2 E237.29908
G1 X51.025 Y43.2 E238.18703
G1 X51.025 Y43.6 E238.197
G1 X15.429 Y43.6 E239.08495
G1 X15.429 Y44 E239.09493
G1 X51.025 Y44 E239.98287
G1 X51.025 Y44.4 E239.99285
G1 X15.429 Y44.4 E240.8808
